!!!!SEGMENT: pl-cz--iii-33--006_bolehovsky-josef--missa-pastoralis-in-d-benedictus.krn
!!!cenid: 18xx:677
!!!COM: Bolehovský, Josef
!!!COM-rismid: pe30000404
!!!CDT: 1743-1811
!!!CNT: Czech
!!!OTL: Missa Pastoralis in D – Benedictus
!!!PDT: 1821
!!!AGN: Sacred; Mass
!!!SMS-siglum: PL-CZ
!!!SMS-shelfmark: III-33
!!!SMS-shelfwork: 001-006 M
!!!SMS-variant:
!!!SMS-altvar:
!!!NIFC-rismid: 300237609
!!!system-decoration: [(s1,s2)][(s3,s4)]s5[(s6,s7,s8,s9)][(s10,s11)]s12
**kern	**fba	**dynam	**kern	**dynam	**kern	**kern	**text	**kern	**text	**kern	**text	**kern	**text	**kern	**kern	**kern	**kern	**kern
*part12	*part12	*part12	*part11	*part11	*part10	*part9	*part9	*part8	*part8	*part7	*part7	*part6	*part6	*part5	*part4	*part3	*part2	*part1
*staff12	*staff12	*	*staff11	*	*staff10	*staff9	*staff9	*staff8	*staff8	*staff7	*staff7	*staff6	*staff6	*staff5	*staff4	*staff3	*staff2	*staff1
*I"Organo	*	*	*I"Violino IIdo	*	*I"Violino 1mo	*I"Baſso	*	*I"Tenore	*	*I"Alto	*	*I"Canto	*	*I"Timpano in D	*I"Clarino Prinzipale in D	*I"Corni duo in D	*I"Clarinetto 2do	*I"Clarinetto 1mo
*I'org	*	*	*I'vl II	*	*I'vl I	*I'B	*	*I'T	*	*I'A	*	*I'C	*	*I'timp	*I'clno prin.	*I'cor I/II	*I'cl II	*I'cl I
*clefF4	*	*	*clefG2	*	*clefG2	*clefF4	*	*clefC4	*	*clefC3	*	*clefC1	*	*clefF4	*clefG2	*clefG2	*clefG2	*clefG2
*	*	*	*	*	*	*	*	*	*	*	*	*	*	*ITrd-1c-2	*ITrd-1c-2	*ITrd6c10	*	*
*k[f#c#g#]	*	*	*k[f#c#g#]	*	*k[f#c#g#]	*k[f#c#g#]	*	*k[f#c#g#]	*	*k[f#c#g#]	*	*k[f#c#g#]	*	*k[f#c#g#]	*k[f#c#g#]	*k[f#c#g#]	*k[f#c#g#]	*k[f#c#g#]
*M3/8	*	*	*M3/8	*	*M3/8	*M3/8	*	*M3/8	*	*M3/8	*	*M3/8	*	*M3/8	*M3/8	*M3/8	*M3/8	*M3/8
=1	=1	=1	=1	=1	=1	=1	=1	=1	=1	=1	=1	=1	=1	=1	=1	=1	=1	=1
!LO:TX:a:t=P:w źródle znaki przy kluczu w takiej kolejności od lewej [C# F# G#]:problem	!	!	!	!	!	!	!	!	!	!	!	!LO:TX:a:t=P:znak przykluczowy c# zapisany w dwóch oktawach:problem	!	!	!	!	!	!
!	!	!	!	!	!	!	!	!	!	!	!	!LO:SIC:o=B:v:t=w źródle 'B' znajduje się przed kluczem i oznaczeniem metrum	!	!	!	!	!	!
!	!	!	!	!	!	!LO:TX:a:Bi:t=Benedictus Tacet.	!	!LO:TX:a:Bi:t=B(e)nedictus Tacet.	!	!LO:TX:a:Bi:t=B(e)nedictus \nTacet.	!	!	!	!LO:TX:a:Bi:t=das andere Tacet bi(t)	!LO:TX:a:Bi:t=Benedictus Tacet.	!LO:TX:a:Bi:t=Benedictus Tacet.	!LO:TX:a:Bi:t=Benedictus, Agnus \nTacet.	!LO:TX:a:Bi:t=Benedictus, Agnus \nTacet.
!LO:TX:a:Bi:t=Bened:problem:'Bened' znajduje się przed kluczem i oznaczeniem metrum	!	!	!LO:TX:a:Bi:t=Benedictus:problem:'Benedictus' znajduje się przed kluczem i oznaczeniem metrum	!	!LO:TX:a:Bi:t=Benedictus:problem:'Benedictus' znajduje się przed kluczem i oznaczeniem metrum	!	!	!	!	!	!	!	!	!	!	!	!	!
!	!	!	!	!	!	!	!	!	!	!	!	!LO:TX:a:t=P:w źródle takty pauz oznaczone poziomą grubą kreską zajmująca jeden takt i '14.' ponad nią:problem	!	!	!	!	!	!
!LO:TX:a:Bi:t=and(an)te	!	!	!LO:TX:a:Bi:t=Andante.	!	!LO:TX:a:Bi:t=andante:rj	!	!	!	!	!	!	!	!	!	!	!	!	!
!LO:TX:a:Bi:t=ſolo.	!	!	!	!	!	!	!	!	!	!	!	!	!	!	!	!	!	!
!	!	!	!LO:TX:a:Bi:t=1.	!	!	!	!	!	!	!	!	!LO:TX:a:Bi:t=14.	!	!	!	!	!	!
!LO:TX:a:t=P:mixed beam:problem	!	!	!	!	!	!	!	!	!	!	!	!	!	!	!	!	!	!
8A\L	.	.	4.r	.	16a'>\LL	4.ryy	.	4.ryy	.	4.ryy	.	0.r	.	4.ryy	4.ryy	4.ryy	4.ryy	4.ryy
.	.	.	.	.	(>32b\L	.	.	.	.	.	.	.	.	.	.	.	.	.
.	.	.	.	.	32cc#\JJJ)	.	.	.	.	.	.	.	.	.	.	.	.	.
8AA/J	.	.	.	.	8b\L	.	.	.	.	.	.	.	.	.	.	.	.	.
8r	.	.	.	.	8a\J	.	.	.	.	.	.	.	.	.	.	.	.	.
=2	=2	=2	=2	=2	=2	=2	=2	=2	=2	=2	=2	=2	=2	=2	=2	=2	=2	=2
!LO:TX:a:t=P:mixed beam:problem	!	!	!	!	!	!	!	!	!	!	!	!	!	!	!	!	!	!
8A\L	.	.	16a/LL	.	(>16cc#\LL	4.ryy	.	4.ryy	.	4.ryy	.	.	.	4.ryy	4.ryy	4.ryy	4.ryy	4.ryy
.	.	.	32b/L	.	32dd\L	.	.	.	.	.	.	.	.	.	.	.	.	.
.	.	.	32cc#/JJJ	.	32ee\JJJ)	.	.	.	.	.	.	.	.	.	.	.	.	.
8AA/J	.	.	8b/L	.	8dd\L	.	.	.	.	.	.	.	.	.	.	.	.	.
8r	.	.	8a/J	.	8cc#\J	.	.	.	.	.	.	.	.	.	.	.	.	.
=3	=3	=3	=3	=3	=3	=3	=3	=3	=3	=3	=3	=3	=3	=3	=3	=3	=3	=3
!	!	!	!LO:TX:a:t=P:mixed beam:problem	!	!	!	!	!	!	!	!	!	!	!	!	!	!	!
8A\L	.	.	8a/L	.	(>32ee\LLL	4.ryy	.	4.ryy	.	4.ryy	.	.	.	4.ryy	4.ryy	4.ryy	4.ryy	4.ryy
.	.	.	.	.	32cc#\	.	.	.	.	.	.	.	.	.	.	.	.	.
.	.	.	.	.	32b\	.	.	.	.	.	.	.	.	.	.	.	.	.
.	.	.	.	.	32a\JJJ)	.	.	.	.	.	.	.	.	.	.	.	.	.
8c#\	.	.	8ee\	.	8.aa\L	.	.	.	.	.	.	.	.	.	.	.	.	.
8c#\J	6	.	8ee\J	.	.	.	.	.	.	.	.	.	.	.	.	.	.	.
.	.	.	.	.	16ggn\Jk	.	.	.	.	.	.	.	.	.	.	.	.	.
=4	=4	=4	=4	=4	=4	=4	=4	=4	=4	=4	=4	=4	=4	=4	=4	=4	=4	=4
!LO:TX:a:t=P:W źródle cyfryzacja w tym takcie średnio widoczna:problem	!	!	!	!	!	!	!	!	!	!	!	!	!	!	!	!	!	!
8d\L	7/	.	8a/L	.	8ff#\L	4.ryy	.	4.ryy	.	4.ryy	.	.	.	4.ryy	4.ryy	4.ryy	4.ryy	4.ryy
8A\J	7	.	8cc#/J	.	8ee\J	.	.	.	.	.	.	.	.	.	.	.	.	.
8r	.	.	8r	.	8r	.	.	.	.	.	.	.	.	.	.	.	.	.
=5	=5	=5	=5	=5	=5	=5	=5	=5	=5	=5	=5	=5	=5	=5	=5	=5	=5	=5
!	!	!	!	!	!LO:N:vis=16.	!	!	!	!	!	!	!	!	!	!	!	!	!
8B\L	7	.	16dd\LL	.	16dd\LL	4.ryy	.	4.ryy	.	4.ryy	.	.	.	4.ryy	4.ryy	4.ryy	4.ryy	4.ryy
.	.	.	32ee\L	.	32ee\L	.	.	.	.	.	.	.	.	.	.	.	.	.
.	.	.	32ff#\JJJ	.	32ff#\JJJ	.	.	.	.	.	.	.	.	.	.	.	.	.
8G#\	6	.	8.b\L	.	8.b\L	.	.	.	.	.	.	.	.	.	.	.	.	.
8E\J	7	.	.	.	.	.	.	.	.	.	.	.	.	.	.	.	.	.
!	!	!	!	!	!LO:N:vis=8	!	!	!	!	!	!	!	!	!	!	!	!	!
.	.	.	16dd\Jk	.	16dd\Jk	.	.	.	.	.	.	.	.	.	.	.	.	.
!	!	!	!	!	!LO:LB:g=original	!	!	!	!	!	!	!	!	!	!	!	!	!
=6	=6	=6	=6	=6	=6	=6	=6	=6	=6	=6	=6	=6	=6	=6	=6	=6	=6	=6
!LO:TX:a:t=P:mixed beam:problem	!	!	!	!	!	!	!	!	!	!	!	!	!	!	!	!	!	!
8A\L	.	.	16cc#\LL	.	(>16cc#\LL	4.ryy	.	4.ryy	.	4.ryy	.	.	.	4.ryy	4.ryy	4.ryy	4.ryy	4.ryy
.	.	.	32dd\L	.	32dd\L	.	.	.	.	.	.	.	.	.	.	.	.	.
.	.	.	32ee\JJJ	.	32ee\JJJ)	.	.	.	.	.	.	.	.	.	.	.	.	.
8AA/	.	.	8.a/L	.	(>8.a\L	.	.	.	.	.	.	.	.	.	.	.	.	.
8C#/J	6	.	.	.	.	.	.	.	.	.	.	.	.	.	.	.	.	.
.	.	.	16cc#/Jk	.	16cc#\Jk)	.	.	.	.	.	.	.	.	.	.	.	.	.
=7	=7	=7	=7	=7	=7	=7	=7	=7	=7	=7	=7	=7	=7	=7	=7	=7	=7	=7
8D\L	6	.	16b\LL	.	(>16b\LL	4.ryy	.	4.ryy	.	4.ryy	.	.	.	4.ryy	4.ryy	4.ryy	4.ryy	4.ryy
.	.	.	16dd\	.	16ff#\	.	.	.	.	.	.	.	.	.	.	.	.	.
8E\	4	.	16cc#\	.	16ee\	.	.	.	.	.	.	.	.	.	.	.	.	.
.	.	.	16b\	.	16dd\	.	.	.	.	.	.	.	.	.	.	.	.	.
8E\J	3	.	16a\	.	16cc#\	.	.	.	.	.	.	.	.	.	.	.	.	.
.	.	.	16g#\JJ	.	16b\JJ)	.	.	.	.	.	.	.	.	.	.	.	.	.
=8	=8	=8	=8	=8	=8	=8	=8	=8	=8	=8	=8	=8	=8	=8	=8	=8	=8	=8
!LO:TX:a:t=P:mixed beam:problem	!	!	!	!	!	!	!	!	!	!	!	!	!	!	!	!	!	!
8AA/L	.	.	16a/LL	.	16cc#\LL	4.ryy	.	4.ryy	.	4.ryy	.	.	.	4.ryy	4.ryy	4.ryy	4.ryy	4.ryy
.	.	.	32b/L	.	16dd\JJ	.	.	.	.	.	.	.	.	.	.	.	.	.
.	.	.	32cc#/JJJ	.	.	.	.	.	.	.	.	.	.	.	.	.	.	.
8A\	.	.	8r	.	8ee'>\	.	.	.	.	.	.	.	.	.	.	.	.	.
8A\J	.	.	8r	.	8r	.	.	.	.	.	.	.	.	.	.	.	.	.
!	!	!	!LO:LB:g=original	!	!	!	!	!	!	!	!	!	!	!	!	!	!	!
=9	=9	=9	=9	=9	=9	=9	=9	=9	=9	=9	=9	=9	=9	=9	=9	=9	=9	=9
8B\L	3	.	32dd\LLL	.	(>32dd\LLL	4.ryy	.	4.ryy	.	4.ryy	.	1.r	.	4.ryy	4.ryy	4.ryy	4.ryy	4.ryy
.	.	.	32ee\	.	32ee\	.	.	.	.	.	.	.	.	.	.	.	.	.
.	.	.	32ff#\	.	32ff#\	.	.	.	.	.	.	.	.	.	.	.	.	.
.	.	.	32ee\JJJ	.	32ee\JJJ)	.	.	.	.	.	.	.	.	.	.	.	.	.
8G#\	6	.	8.b\L	.	8.b\L	.	.	.	.	.	.	.	.	.	.	.	.	.
8E\J	7	.	.	.	.	.	.	.	.	.	.	.	.	.	.	.	.	.
.	.	.	16dd\Jk	.	16dd\Jk	.	.	.	.	.	.	.	.	.	.	.	.	.
=10	=10	=10	=10	=10	=10	=10	=10	=10	=10	=10	=10	=10	=10	=10	=10	=10	=10	=10
!LO:TX:a:t=P:mixed beam:problem	!	!	!	!	!	!	!	!	!	!	!	!	!	!	!	!	!	!
8A\L	.	.	32cc#\LLL	.	(>32cc#\LLL	4.ryy	.	4.ryy	.	4.ryy	.	.	.	4.ryy	4.ryy	4.ryy	4.ryy	4.ryy
.	.	.	32dd\	.	32dd\	.	.	.	.	.	.	.	.	.	.	.	.	.
.	.	.	32ee\	.	32ee\	.	.	.	.	.	.	.	.	.	.	.	.	.
.	.	.	32cc#\JJJ	.	32cc#\JJJ)	.	.	.	.	.	.	.	.	.	.	.	.	.
8AA/	.	.	8.a/L	.	8.a\L	.	.	.	.	.	.	.	.	.	.	.	.	.
8C#/J	6	.	.	.	.	.	.	.	.	.	.	.	.	.	.	.	.	.
.	.	.	16a#X/Jk	.	16a#X\Jk	.	.	.	.	.	.	.	.	.	.	.	.	.
=11	=11	=11	=11	=11	=11	=11	=11	=11	=11	=11	=11	=11	=11	=11	=11	=11	=11	=11
!LO:TX:a:t=P:mixed beam:problem	!	!	!	!	!	!	!	!	!	!	!	!	!	!	!	!	!	!
8D\L	6	.	16b\LL	.	16b\LL	4.ryy	.	4.ryy	.	4.ryy	.	.	.	4.ryy	4.ryy	4.ryy	4.ryy	4.ryy
.	.	.	16ff#\JJ	.	16ff#\JJ	.	.	.	.	.	.	.	.	.	.	.	.	.
.	.	.	.	.	8qqff#/	.	.	.	.	.	.	.	.	.	.	.	.	.
8E\	4	.	16ee\LL	.	16ee\LL	.	.	.	.	.	.	.	.	.	.	.	.	.
.	.	.	32dd\L	.	32dd\L	.	.	.	.	.	.	.	.	.	.	.	.	.
.	.	.	32cc#\JJJ	.	32cc#\JJJ	.	.	.	.	.	.	.	.	.	.	.	.	.
.	.	.	.	.	8qqcc#/	.	.	.	.	.	.	.	.	.	.	.	.	.
8EE/J	3	.	16b/LL	.	16b\LL	.	.	.	.	.	.	.	.	.	.	.	.	.
.	.	.	32a/L	.	32a\L	.	.	.	.	.	.	.	.	.	.	.	.	.
.	.	.	32g#/JJJ	.	32g#\JJJ	.	.	.	.	.	.	.	.	.	.	.	.	.
!LO:LB:g=original	!	!	!	!	!	!	!	!	!	!	!	!	!	!	!	!	!	!
=12	=12	=12	=12	=12	=12	=12	=12	=12	=12	=12	=12	=12	=12	=12	=12	=12	=12	=12
*tremolo	*	*	*	*	*	*	*	*	*	*	*	*	*	*	*	*	*	*
*ped	*	*	*	*	*	*	*	*	*	*	*	*	*	*	*	*	*	*
!LO:TX:a:Bi:t=peda:problem:prawdopodobnie oznaczenie znaku pedalizacji	!	!	!	!	!	!	!	!	!	!	!	!	!	!	!	!	!	!
8AA/L	.	.	8a/	.	8a/	4.ryy	.	4.ryy	.	4.ryy	.	.	.	4.ryy	4.ryy	4.ryy	4.ryy	4.ryy
8AA/	.	.	16r	.	16r	.	.	.	.	.	.	.	.	.	.	.	.	.
.	.	.	16f#/LL	.	16dd\LL	.	.	.	.	.	.	.	.	.	.	.	.	.
8AA/J	.	.	16e/	.	16cc#\	.	.	.	.	.	.	.	.	.	.	.	.	.
.	.	.	16d/JJ	.	16b\JJ	.	.	.	.	.	.	.	.	.	.	.	.	.
=13	=13	=13	=13	=13	=13	=13	=13	=13	=13	=13	=13	=13	=13	=13	=13	=13	=13	=13
8AA/L	.	.	8c#/	.	8a/	4.ryy	.	4.ryy	.	4.ryy	.	2.r	.	4.ryy	4.ryy	4.ryy	4.ryy	4.ryy
8AA/	.	.	16r	.	16r	.	.	.	.	.	.	.	.	.	.	.	.	.
.	.	.	16d/LL	.	16f#/LL	.	.	.	.	.	.	.	.	.	.	.	.	.
8AA/J	.	.	16c#/	.	16e/	.	.	.	.	.	.	.	.	.	.	.	.	.
.	.	.	16B/JJ	.	16d/JJ	.	.	.	.	.	.	.	.	.	.	.	.	.
*Xtremolo	*	*	*	*	*	*	*	*	*	*	*	*	*	*	*	*	*	*
!	!	!	!	!	!LO:LB:g=original	!	!	!	!	!	!	!	!	!	!	!	!	!
=14	=14	=14	=14	=14	=14	=14	=14	=14	=14	=14	=14	=14	=14	=14	=14	=14	=14	=14
4AA/	.	.	8B/L	.	8d/L	4.ryy	.	4.ryy	.	4.ryy	.	.	.	4.ryy	4.ryy	4.ryy	4.ryy	4.ryy
.	.	.	8A/J	.	8c#/J	.	.	.	.	.	.	.	.	.	.	.	.	.
!	!	!	!	!	!LO:TX:a:t=P:w źródle znak fermaty odpowiada za znak segno:problem	!	!	!	!	!	!	!	!	!	!	!	!	!
!	!	!LO:DY:a:t=%so&colon;	!	!	!	!	!	!	!	!	!	!	!	!	!	!	!	!
8r	.	pp	8r	.	8r;>	.	.	.	.	.	.	.	.	.	.	.	.	.
=15	=15	=15	=15||;;	=15||	=15||	=15	=15	=15	=15	=15	=15	=15	=15	=15	=15	=15	=15	=15
!LO:TX:a:t=P:mixed beam:problem	!	!	!	!	!	!	!	!	!	!	!	!	!	!	!	!	!	!
!	!	!	!	!	!	!	!	!	!	!	!	!LO:TX:a:Bi:t=andte	!	!	!	!	!	!
8A\L	.	.	4.r	.	(<16a/LL	4.ryy	.	4.ryy	.	4.ryy	.	(>16a\LL	Be-	4.ryy	4.ryy	4.ryy	4.ryy	4.ryy
.	.	.	.	.	32b/L	.	.	.	.	.	.	32b\L)	.	.	.	.	.	.
.	.	.	.	.	32cc#/JJJ)	.	.	.	.	.	.	32cc#\JJJ	.	.	.	.	.	.
8AA/J	.	.	.	.	8b/L|	.	.	.	.	.	.	8b'>\	-ne-	.	.	.	.	.
8r	.	.	.	.	8a/J|	.	.	.	.	.	.	8a'>\	.	.	.	.	.	.
=16	=16	=16	=16	=16	=16	=16	=16	=16	=16	=16	=16	=16	=16	=16	=16	=16	=16	=16
!LO:TX:a:t=P:mixed beam:problem	!	!	!	!	!	!	!	!	!	!	!	!	!	!	!	!	!	!
!	!	!	!	!LO:DY:a:t=%s&colon;	!	!	!	!	!	!	!	!	!	!	!	!	!	!
8A\L	.	.	16a/LL	p	(>16cc#\LL	4.ryy	.	4.ryy	.	4.ryy	.	(>16cc#\LL	-dic-	4.ryy	4.ryy	4.ryy	4.ryy	4.ryy
.	.	.	32b/L	.	32dd\L	.	.	.	.	.	.	32dd\L	.	.	.	.	.	.
.	.	.	32cc#/JJJ	.	32ee\JJJ)	.	.	.	.	.	.	32ee\JJJ)	.	.	.	.	.	.
8AA/J	.	.	8b/L	.	8dd\L|	.	.	.	.	.	.	8dd'>\	-tus	.	.	.	.	.
8r	.	.	8a/J	.	8cc#\J|	.	.	.	.	.	.	8cc#'>\	qui	.	.	.	.	.
=17	=17	=17	=17	=17	=17	=17	=17	=17	=17	=17	=17	=17	=17	=17	=17	=17	=17	=17
8A\L	.	.	8cc#\L	.	(>32ee\LLL	4.ryy	.	4.ryy	.	4.ryy	.	(>32ee\LLL	ve-	4.ryy	4.ryy	4.ryy	4.ryy	4.ryy
.	.	.	.	.	32cc#\	.	.	.	.	.	.	32cc#\	.	.	.	.	.	.
.	.	.	.	.	32b\	.	.	.	.	.	.	32b\	.	.	.	.	.	.
.	.	.	.	.	32a\JJJ)	.	.	.	.	.	.	32a\JJJ)	.	.	.	.	.	.
8c#\	6	.	8ee\	.	8.aa\L	.	.	.	.	.	.	8.aa\	-nit	.	.	.	.	.
8A\J	.	.	8ee\J	.	.	.	.	.	.	.	.	.	.	.	.	.	.	.
.	.	.	.	.	16ggn\Jk	.	.	.	.	.	.	16ggn\	qui	.	.	.	.	.
=18	=18	=18	=18	=18	=18	=18	=18	=18	=18	=18	=18	=18	=18	=18	=18	=18	=18	=18
8d\L	.	.	8a/L	.	8ff#\L	4.ryy	.	4.ryy	.	4.ryy	.	8ff#\	ve-	4.ryy	4.ryy	4.ryy	4.ryy	4.ryy
(>16A\L	.	.	8cc#/J	.	8ee\J	.	.	.	.	.	.	8ee\	-nit	.	.	.	.	.
16B\	.	.	.	.	.	.	.	.	.	.	.	.	.	.	.	.	.	.
16c#\)	6	.	8r	.	8r	.	.	.	.	.	.	8r	.	.	.	.	.	.
16A\JJ	.	.	.	.	.	.	.	.	.	.	.	.	.	.	.	.	.	.
!	!	!	!LO:LB:g=original	!	!	!	!	!	!	!	!	!	!	!	!	!	!	!
=19	=19	=19	=19	=19	=19	=19	=19	=19	=19	=19	=19	=19	=19	=19	=19	=19	=19	=19
8d\	.	.	16r	.	16r	4.ryy	.	4.ryy	.	4.ryy	.	16r	.	4.ryy	4.ryy	4.ryy	4.ryy	4.ryy
.	.	.	16ff#\LL	.	(>16ff#\LL	.	.	.	.	.	.	16ff#\	in	.	.	.	.	.
8r	.	.	16ee\	.	16ee\	.	.	.	.	.	.	(>16ee\LL	no-	.	.	.	.	.
.	.	.	16dd\	.	16dd\	.	.	.	.	.	.	16dd\JJ)	.	.	.	.	.	.
8D\	7	.	16cc#\	.	16cc#\	.	.	.	.	.	.	16cc#\	-mi-	.	.	.	.	.
.	6	.	16b\JJ	.	16b\JJ)	.	.	.	.	.	.	16b\	-ne	.	.	.	.	.
=20	=20	=20	=20	=20	=20	=20	=20	=20	=20	=20	=20	=20	=20	=20	=20	=20	=20	=20
8E\L	6	.	4g#/	.	4g#/	4.ryy	.	4.ryy	.	4.ryy	.	(>8a\L	do-	4.ryy	4.ryy	4.ryy	4.ryy	4.ryy
.	4	.	.	.	.	.	.	.	.	.	.	.	.	.	.	.	.	.
8D\	4	.	.	.	.	.	.	.	.	.	.	8g#\	.	.	.	.	.	.
8C#\J	6	.	8a/	.	8a/	.	.	.	.	.	.	8a\J)	.	.	.	.	.	.
!	!	!	!	!	!	!	!	!	!	!	!	!LO:LB:g=original	!	!	!	!	!	!
=21	=21	=21	=21	=21	=21	=21	=21	=21	=21	=21	=21	=21	=21	=21	=21	=21	=21	=21
!LO:TX:a:t=P:mixed beam:problem	!	!	!	!	!LO:TX:a:t=P:mixed beam:problem	!	!	!	!	!	!	!LO:TX:a:t=P:mixed beam:problem	!	!	!	!	!	!
8BB/L	6 x	.	8e/L	.	8e/L	4.ryy	.	4.ryy	.	4.ryy	.	8e/L	.	4.ryy	4.ryy	4.ryy	4.ryy	4.ryy
8G#\	6 x	.	8b/	.	8dd\	.	.	.	.	.	.	8dd\J	.	.	.	.	.	.
8A\J	6 5	.	8a/J	.	8cc#\J	.	.	.	.	.	.	8cc#\	-mi-	.	.	.	.	.
=22	=22	=22	=22	=22	=22	=22	=22	=22	=22	=22	=22	=22	=22	=22	=22	=22	=22	=22
!LO:TX:a:t=P:mixed beam:problem	!	!	!	!	!	!	!	!	!	!	!	!	!	!	!	!	!	!
.	.	.	.	.	.	.	.	.	.	.	.	8qqcc#/	.	.	.	.	.	.
8e\L	6 4	.	4g#/	.	4b\	4.ryy	.	4.ryy	.	4.ryy	.	4b\	-ni	4.ryy	4.ryy	4.ryy	4.ryy	4.ryy
8E/J	5 3	.	.	.	.	.	.	.	.	.	.	.	.	.	.	.	.	.
8r	.	.	8r	.	8r	.	.	.	.	.	.	8r	.	.	.	.	.	.
=23	=23	=23	=23	=23	=23	=23	=23	=23	=23	=23	=23	=23	=23	=23	=23	=23	=23	=23
*	*	*	*tremolo	*	*tremolo	*	*	*	*	*	*	*	*	*	*	*	*	*
8BB/L	7 5/	.	16a/LL	.	16b/LL	4.ryy	.	4.ryy	.	4.ryy	.	4a\	be-	4.ryy	4.ryy	4.ryy	4.ryy	4.ryy
.	.	.	16a/	.	16b/	.	.	.	.	.	.	.	.	.	.	.	.	.
8D#X/	.	.	16a/	.	16b/	.	.	.	.	.	.	.	.	.	.	.	.	.
.	.	.	16a/	.	16b/	.	.	.	.	.	.	.	.	.	.	.	.	.
8BB/J	.	.	16a/	.	16b/	.	.	.	.	.	.	8a\	-ne-	.	.	.	.	.
.	.	.	16a/JJ	.	16b/JJ	.	.	.	.	.	.	.	.	.	.	.	.	.
=24	=24	=24	=24	=24	=24	=24	=24	=24	=24	=24	=24	=24	=24	=24	=24	=24	=24	=24
8E\L	.	.	16g#/LL	.	16b/LL	4.ryy	.	4.ryy	.	4.ryy	.	(>16g#\LL	-dic-	4.ryy	4.ryy	4.ryy	4.ryy	4.ryy
.	.	.	16g#/	.	16b/	.	.	.	.	.	.	16ee\JJ)	.	.	.	.	.	.
8G#\	.	.	16g#/	.	16b/	.	.	.	.	.	.	8b'>\	-tus;	.	.	.	.	.
.	.	.	16g#/	.	16b/	.	.	.	.	.	.	.	.	.	.	.	.	.
8E\J	.	.	16g#/	.	16b/	.	.	.	.	.	.	8r	.	.	.	.	.	.
.	.	.	16g#/JJ	.	16b/JJ	.	.	.	.	.	.	.	.	.	.	.	.	.
=25	=25	=25	=25	=25	=25	=25	=25	=25	=25	=25	=25	=25	=25	=25	=25	=25	=25	=25
8BB/L	7 5	.	16a/LL	.	16b/LL	4.ryy	.	4.ryy	.	4.ryy	.	4.a\	qui	4.ryy	4.ryy	4.ryy	4.ryy	4.ryy
.	.	.	16a/	.	16b/	.	.	.	.	.	.	.	.	.	.	.	.	.
8D#X/	.	.	16a/	.	16b/	.	.	.	.	.	.	.	.	.	.	.	.	.
.	.	.	16a/	.	16b/	.	.	.	.	.	.	.	.	.	.	.	.	.
8BB/J	.	.	16a/	.	16b/	.	.	.	.	.	.	.	.	.	.	.	.	.
.	.	.	16a/JJ	.	16b/JJ	.	.	.	.	.	.	.	.	.	.	.	.	.
*	*	*	*	*	*Xtremolo	*	*	*	*	*	*	*	*	*	*	*	*	*
!	!	!	!	!	!LO:LB:g=original	!	!	!	!	!	!	!	!	!	!	!	!	!
=26	=26	=26	=26	=26	=26	=26	=26	=26	=26	=26	=26	=26	=26	=26	=26	=26	=26	=26
4E\	.	.	16g#/LL	.	4b\	4.ryy	.	4.ryy	.	4.ryy	.	(>16g#\LL	ve-	4.ryy	4.ryy	4.ryy	4.ryy	4.ryy
.	.	.	16g#/	.	.	.	.	.	.	.	.	16ee\JJ)	.	.	.	.	.	.
.	.	.	16g#/	.	.	.	.	.	.	.	.	8b\	-nit	.	.	.	.	.
.	.	.	16g#/	.	.	.	.	.	.	.	.	.	.	.	.	.	.	.
8G#\	6	.	16g#/	.	8r	.	.	.	.	.	.	8b\	in	.	.	.	.	.
.	.	.	16g#/JJ	.	.	.	.	.	.	.	.	.	.	.	.	.	.	.
*	*	*	*Xtremolo	*	*	*	*	*	*	*	*	*	*	*	*	*	*	*
!LO:LB:g=original	!	!	!	!	!	!	!	!	!	!	!	!	!	!	!	!	!	!
=27	=27	=27	=27	=27	=27	=27	=27	=27	=27	=27	=27	=27	=27	=27	=27	=27	=27	=27
!	!	!	!LO:TX:a:t=P:W źródle niezidentyfikowany symbol pod nutą:problem	!	!	!	!	!	!	!	!	!LO:SIC:l:s=ve-:v	!	!	!	!	!	!
8A\L	.	.	8e/L	.	8cc#\L	4.ryy	.	4.ryy	.	4.ryy	.	(>32cc#\LLL	no-	4.ryy	4.ryy	4.ryy	4.ryy	4.ryy
.	.	.	.	.	.	.	.	.	.	.	.	32dd\	.	.	.	.	.	.
.	.	.	.	.	.	.	.	.	.	.	.	32cc#\	.	.	.	.	.	.
.	.	.	.	.	.	.	.	.	.	.	.	32b\JJJ)	.	.	.	.	.	.
8A\	.	.	8e/	.	8cc#\	.	.	.	.	.	.	8cc#\	.	.	.	.	.	.
!	!	!	!	!	!	!	!	!	!	!	!	!LO:N:vis=16	!	!	!	!	!	!
8A\J	.	.	8e/J	.	8cc#\J	.	.	.	.	.	.	8r	.	.	.	.	.	.
=28	=28	=28	=28	=28	=28	=28	=28	=28	=28	=28	=28	=28	=28	=28	=28	=28	=28	=28
*tremolo	*	*	*tremolo	*	*tremolo	*	*	*	*	*	*	*	*	*	*	*	*	*
!	!	!	!	!	!LO:TX:a:t=P:w źródle trzy kreski nad nutą [ilość nut / detache]:problem	!	!	!	!	!	!	!	!	!	!	!	!	!
8A\L	.	.	8e/L	.	8cc#\L	4.ryy	.	4.ryy	.	4.ryy	.	16r	.	4.ryy	4.ryy	4.ryy	4.ryy	4.ryy
!	!	!	!	!	!	!	!	!	!	!	!	!LO:N:vis=16	!	!	!	!	!	!
.	.	.	.	.	.	.	.	.	.	.	.	8aa\L	.	.	.	.	.	.
8A\	.	.	8e/	.	8cc#\	.	.	.	.	.	.	.	.	.	.	.	.	.
.	.	.	.	.	.	.	.	.	.	.	.	8ee\	.	.	.	.	.	.
8A\J	.	.	8e/J	.	8cc#\J	.	.	.	.	.	.	.	.	.	.	.	.	.
.	.	.	.	.	.	.	.	.	.	.	.	16cc#\Jk	.	.	.	.	.	.
=29	=29	=29	=29	=29	=29	=29	=29	=29	=29	=29	=29	=29	=29	=29	=29	=29	=29	=29
!	!	!	!	!	!LO:TX:a:t=P:w źródle trzy kreski nad nutą [ilość nut / detache]:problem	!	!	!	!	!	!	!	!	!	!	!	!	!
8G#\L	3	.	8e/L	.	8b\L	4.ryy	.	4.ryy	.	4.ryy	.	(>32b\LLL	.	4.ryy	4.ryy	4.ryy	4.ryy	4.ryy
.	.	.	.	.	.	.	.	.	.	.	.	32cc#\	.	.	.	.	.	.
.	.	.	.	.	.	.	.	.	.	.	.	32b\	.	.	.	.	.	.
.	.	.	.	.	.	.	.	.	.	.	.	32a\JJJ)	.	.	.	.	.	.
8G#\	.	.	8e/	.	8b\	.	.	.	.	.	.	8b\	.	.	.	.	.	.
8G#\J	.	.	8e/J	.	8b\J	.	.	.	.	.	.	8r	.	.	.	.	.	.
=30	=30	=30	=30	=30	=30	=30	=30	=30	=30	=30	=30	=30	=30	=30	=30	=30	=30	=30
!	!	!	!	!	!LO:TX:a:t=P:w źródle trzy kreski nad nutą [ilość nut / detache]:problem	!	!	!	!	!	!	!	!	!	!	!	!	!
8G#\L	.	.	8e/L	.	8b\L	4.ryy	.	4.ryy	.	4.ryy	.	16r	.	4.ryy	4.ryy	4.ryy	4.ryy	4.ryy
!	!	!	!	!	!	!	!	!	!	!	!	!LO:N:vis=16	!	!	!	!	!	!
.	.	.	.	.	.	.	.	.	.	.	.	8gg#\L	.	.	.	.	.	.
8G#\	.	.	8e/	.	8b\	.	.	.	.	.	.	.	.	.	.	.	.	.
.	.	.	.	.	.	.	.	.	.	.	.	8ee\	.	.	.	.	.	.
8G#\J	.	.	8e/J	.	8b\J	.	.	.	.	.	.	.	.	.	.	.	.	.
.	.	.	.	.	.	.	.	.	.	.	.	16b\Jk	.	.	.	.	.	.
=31	=31	=31	=31	=31	=31	=31	=31	=31	=31	=31	=31	=31	=31	=31	=31	=31	=31	=31
!	!	!	!	!	!LO:TX:a:t=P:w źródle trzy kreski pod nutą [ilość nut / detache]:problem	!	!	!	!	!	!	!	!	!	!	!	!	!
8F#\L	7	.	8e/L	.	8a/L	4.ryy	.	4.ryy	.	4.ryy	.	(>32a\LLL	.	4.ryy	4.ryy	4.ryy	4.ryy	4.ryy
.	.	.	.	.	.	.	.	.	.	.	.	32b\	.	.	.	.	.	.
.	.	.	.	.	.	.	.	.	.	.	.	32a\	.	.	.	.	.	.
.	.	.	.	.	.	.	.	.	.	.	.	32g#\JJJ)	.	.	.	.	.	.
8F#\	.	.	8e/	.	8a/	.	.	.	.	.	.	8a\	.	.	.	.	.	.
!	!	!	!	!	!	!	!	!	!	!	!	!LO:TX:a:t=P:w źródle pauza pod ósemką:problem	!	!	!	!	!	!
8F#\J	.	.	8e/J	.	8a/J	.	.	.	.	.	.	8r	.	.	.	.	.	.
=32	=32	=32	=32	=32	=32	=32	=32	=32	=32	=32	=32	=32	=32	=32	=32	=32	=32	=32
!	!	!	!	!	!LO:TX:a:t=P:w źródle trzy kreski pod nutą [ilość nut / detache]:problem	!	!	!	!	!	!	!	!	!	!	!	!	!
!	!	!	!	!	!	!	!	!	!	!	!	!LO:N:vis=8	!	!	!	!	!	!
8BB/L	7 #	.	8d#X/L	.	8a/L	4.ryy	.	4.ryy	.	4.ryy	.	16r	.	4.ryy	4.ryy	4.ryy	4.ryy	4.ryy
.	.	.	.	.	.	.	.	.	.	.	.	8ff#\L	.	.	.	.	.	.
8BB/	.	.	8d#X/	.	8a/	.	.	.	.	.	.	.	.	.	.	.	.	.
.	.	.	.	.	.	.	.	.	.	.	.	8dd#X\	.	.	.	.	.	.
8BB/J	.	.	8d#X/J	.	8a/J	.	.	.	.	.	.	.	.	.	.	.	.	.
.	.	.	.	.	.	.	.	.	.	.	.	16a\Jk	.	.	.	.	.	.
*Xtremolo	*	*	*Xtremolo	*	*Xtremolo	*	*	*	*	*	*	*	*	*	*	*	*	*
!	!	!	!	!	!	!	!	!	!	!	!	!LO:LB:g=original	!	!	!	!	!	!
=33	=33	=33	=33	=33	=33	=33	=33	=33	=33	=33	=33	=33	=33	=33	=33	=33	=33	=33
8E\	.	.	8B/	.	4g#/	4.ryy	.	4.ryy	.	4.ryy	.	16g#\	-nit	4.ryy	4.ryy	4.ryy	4.ryy	4.ryy
.	.	.	.	.	.	.	.	.	.	.	.	16ee\	in	.	.	.	.	.
8r	.	.	8r	.	.	.	.	.	.	.	.	8ee\	no-	.	.	.	.	.
8r	.	.	8r	.	8r	.	.	.	.	.	.	16ee\	-mi-	.	.	.	.	.
.	.	.	.	.	.	.	.	.	.	.	.	16ee\	-ne	.	.	.	.	.
=34	=34	=34	=34	=34	=34	=34	=34	=34	=34	=34	=34	=34	=34	=34	=34	=34	=34	=34
*	*	*	*^	*	*	*	*	*	*	*	*	*	*	*	*	*	*	*
!	!	!	!	!	!	!	!	!	!	!	!	!	!LO:TX:a:t=P:w źródle tajemniczy znak nad literą 'o' z sylaby 'Do-':problem	!	!	!	!	!	!
!	!	!	!	!	!	!	!	!	!	!	!	!	!LO:N:vis=4.	!	!	!	!	!	!
4.E\	.	.	4.b/	4.g#\	.	16ee\LL|	4.ryy	.	4.ryy	.	4.ryy	.	4ee\	Do-	4.ryy	4.ryy	4.ryy	4.ryy	4.ryy
.	.	.	.	.	.	(>32gg#\L	.	.	.	.	.	.	.	.	.	.	.	.	.
.	.	.	.	.	.	32b\JJJ)	.	.	.	.	.	.	.	.	.	.	.	.	.
.	.	.	.	.	.	16ee\LL|	.	.	.	.	.	.	.	.	.	.	.	.	.
.	.	.	.	.	.	(>32gg#\L	.	.	.	.	.	.	.	.	.	.	.	.	.
.	.	.	.	.	.	32b\JJJ)	.	.	.	.	.	.	.	.	.	.	.	.	.
!	!	!	!	!	!	!	!	!	!	!	!	!	!LO:N:vis=32	!	!	!	!	!	!
.	.	.	.	.	.	8ee\	.	.	.	.	.	.	(>16gg#\LL	.	.	.	.	.	.
!	!	!	!	!	!	!	!	!	!	!	!	!	!LO:N:vis=32	!	!	!	!	!	!
.	.	.	.	.	.	.	.	.	.	.	.	.	16b\JJ)	.	.	.	.	.	.
=35	=35	=35	=35	=35	=35	=35	=35	=35	=35	=35	=35	=35	=35	=35	=35	=35	=35	=35	=35
!	!	!	!	!	!	!	!	!	!	!	!	!	!LO:N:vis=4.	!	!	!	!	!	!
4.E\	.	.	4.b/	4.g#\	.	16ee\LL|	4.ryy	.	4.ryy	.	4.ryy	.	4ee`>\	.	4.ryy	4.ryy	4.ryy	4.ryy	4.ryy
.	.	.	.	.	.	(>32gg#\L	.	.	.	.	.	.	.	.	.	.	.	.	.
.	.	.	.	.	.	32b\JJJ)	.	.	.	.	.	.	.	.	.	.	.	.	.
.	.	.	.	.	.	16ee\LL|	.	.	.	.	.	.	.	.	.	.	.	.	.
.	.	.	.	.	.	(>32bb\L	.	.	.	.	.	.	.	.	.	.	.	.	.
.	.	.	.	.	.	32b\JJJ)	.	.	.	.	.	.	.	.	.	.	.	.	.
!	!	!	!	!	!	!	!	!	!	!	!	!	!LO:N:vis=32	!	!	!	!	!	!
.	.	.	.	.	.	8ee\	.	.	.	.	.	.	(>16gg#\LL	.	.	.	.	.	.
!	!	!	!	!	!	!	!	!	!	!	!	!	!LO:N:vis=32	!	!	!	!	!	!
.	.	.	.	.	.	.	.	.	.	.	.	.	16b\JJ)	.	.	.	.	.	.
!	!	!	!LO:LB:g=original	!	!	!	!	!	!	!	!	!	!	!	!	!	!	!	!
*	*	*	*v	*v	*	*	*	*	*	*	*	*	*	*	*	*	*	*	*
=36	=36	=36	=36	=36	=36	=36	=36	=36	=36	=36	=36	=36	=36	=36	=36	=36	=36	=36
!LO:TX:a:t=P:mixed beam:problem	!	!	!	!	!	!	!	!	!	!	!	!	!	!	!	!	!	!
8A\L	8 6	.	16a/LL	.	(>16cc#\LL	4.ryy	.	4.ryy	.	4.ryy	.	16cc#\LL	.	4.ryy	4.ryy	4.ryy	4.ryy	4.ryy
.	.	.	32g#/L	.	32b\L	.	.	.	.	.	.	32b\L	.	.	.	.	.	.
.	.	.	32f#/JJJ	.	32a\JJJ)	.	.	.	.	.	.	32a\JJJ	.	.	.	.	.	.
8B\	6 4	.	8e/L	.	8g#/L	.	.	.	.	.	.	8g#/	.	.	.	.	.	.
8BB/J	# x	.	8d#X/J	.	8f#/J	.	.	.	.	.	.	8f#/	-mi-	.	.	.	.	.
=37	=37	=37	=37	=37	=37	=37	=37	=37	=37	=37	=37	=37	=37	=37	=37	=37	=37	=37
!	!	!	!LO:N:vis=4	!	!	!	!	!	!	!	!	!	!	!	!	!	!	!
4E\	.	.	8e/	.	4e/	4.ryy	.	4.ryy	.	4.ryy	.	16e/	-ni	4.ryy	4.ryy	4.ryy	4.ryy	4.ryy
.	.	.	.	.	.	.	.	.	.	.	.	16ee\	in	.	.	.	.	.
.	.	.	8r	.	.	.	.	.	.	.	.	8ee\	no-	.	.	.	.	.
8r	.	.	8r	.	8r	.	.	.	.	.	.	16ee\	-mi-	.	.	.	.	.
.	.	.	.	.	.	.	.	.	.	.	.	16ee\	-ne	.	.	.	.	.
=38	=38	=38	=38	=38	=38	=38	=38	=38	=38	=38	=38	=38	=38	=38	=38	=38	=38	=38
*	*	*	*^	*	*	*	*	*	*	*	*	*	*	*	*	*	*	*
!	!	!	!	!	!	!	!	!	!	!	!	!	!LO:N:vis=4.	!	!	!	!	!	!
4.E\	.	.	4.b/	4.g#\	.	16ee\LL	4.ryy	.	4.ryy	.	4.ryy	.	4ee`>\	Do-	4.ryy	4.ryy	4.ryy	4.ryy	4.ryy
.	.	.	.	.	.	32gg#\L	.	.	.	.	.	.	.	.	.	.	.	.	.
.	.	.	.	.	.	32b\JJJ	.	.	.	.	.	.	.	.	.	.	.	.	.
.	.	.	.	.	.	16ee\LL	.	.	.	.	.	.	.	.	.	.	.	.	.
.	.	.	.	.	.	32gg#\L	.	.	.	.	.	.	.	.	.	.	.	.	.
.	.	.	.	.	.	32b\JJJ	.	.	.	.	.	.	.	.	.	.	.	.	.
!	!	!	!	!	!	!	!	!	!	!	!	!	!LO:N:vis=32	!	!	!	!	!	!
.	.	.	.	.	.	8ee\	.	.	.	.	.	.	(>16gg#\LL	.	.	.	.	.	.
!	!	!	!	!	!	!	!	!	!	!	!	!	!LO:N:vis=32	!	!	!	!	!	!
.	.	.	.	.	.	.	.	.	.	.	.	.	16b\JJ)	.	.	.	.	.	.
!	!	!	!	!	!	!LO:LB:g=original	!	!	!	!	!	!	!	!	!	!	!	!	!
=39	=39	=39	=39	=39	=39	=39	=39	=39	=39	=39	=39	=39	=39	=39	=39	=39	=39	=39	=39
!	!	!	!	!	!	!	!	!	!	!	!	!	!LO:N:vis=4.	!	!	!	!	!	!
4.E\	.	.	4.b/	4.g#\	.	16ee\LL|	4.ryy	.	4.ryy	.	4.ryy	.	4ee`>\	.	4.ryy	4.ryy	4.ryy	4.ryy	4.ryy
.	.	.	.	.	.	(>32gg#\L	.	.	.	.	.	.	.	.	.	.	.	.	.
.	.	.	.	.	.	32b\JJJ)	.	.	.	.	.	.	.	.	.	.	.	.	.
.	.	.	.	.	.	16ee\LL	.	.	.	.	.	.	.	.	.	.	.	.	.
.	.	.	.	.	.	32bb\L	.	.	.	.	.	.	.	.	.	.	.	.	.
.	.	.	.	.	.	32b\JJJ	.	.	.	.	.	.	.	.	.	.	.	.	.
!	!	!	!	!	!	!	!	!	!	!	!	!	!LO:N:vis=32	!	!	!	!	!	!
.	.	.	.	.	.	8ee\	.	.	.	.	.	.	(>16gg#\LL	.	.	.	.	.	.
!	!	!	!	!	!	!	!	!	!	!	!	!	!LO:N:vis=32	!	!	!	!	!	!
!	!	!	!	!	!	!	!	!	!	!	!	!	!LO:TX:a:t=P:w źródle następny takt skreślony przez skryptora:problem	!	!	!	!	!	!
.	.	.	.	.	.	.	.	.	.	.	.	.	16b\JJ)	.	.	.	.	.	.
*	*	*	*v	*v	*	*	*	*	*	*	*	*	*	*	*	*	*	*	*
=40	=40	=40	=40	=40	=40	=40	=40	=40	=40	=40	=40	=40	=40	=40	=40	=40	=40	=40
.	.	.	.	.	8qqdd/	.	.	.	.	.	.	.	.	.	.	.	.	.
!LO:TX:a:t=P:mixed beam:problem	!	!	!	!	!	!	!	!	!	!	!	!	!	!	!	!	!	!
8A\L	8 6	.	16a/LL	.	16cc#\LL	4.ryy	.	4.ryy	.	4.ryy	.	16cc#`>\LL	.	4.ryy	4.ryy	4.ryy	4.ryy	4.ryy
.	.	.	32g#/L	.	32b\L	.	.	.	.	.	.	32b\L	.	.	.	.	.	.
.	.	.	32f#/JJJ	.	32a\JJJ	.	.	.	.	.	.	32a\JJJ	.	.	.	.	.	.
8B\	6 7	.	8e/L	.	8g#/L	.	.	.	.	.	.	8g#/	.	.	.	.	.	.
8BB/J	5 #	.	8d#X/J	.	8f#/J	.	.	.	.	.	.	8f#/	-mi-	.	.	.	.	.
=41	=41	=41	=41	=41	=41	=41	=41	=41	=41	=41	=41	=41	=41	=41	=41	=41	=41	=41
!	!	!	!	!	!LO:TX:a:t=P:mixed beam:problem	!	!	!	!	!	!	!	!	!	!	!	!	!
4E\	.	.	8e/	.	(>16e/LL	4.ryy	.	4.ryy	.	4.ryy	.	4e/	-ni	4.ryy	4.ryy	4.ryy	4.ryy	4.ryy
.	.	.	.	.	16ee\	.	.	.	.	.	.	.	.	.	.	.	.	.
.	.	.	4r	.	16gg#\	.	.	.	.	.	.	.	.	.	.	.	.	.
.	.	.	.	.	16dd#X\	.	.	.	.	.	.	.	.	.	.	.	.	.
8r	.	.	.	.	16ee\	.	.	.	.	.	.	8r	.	.	.	.	.	.
.	.	.	.	.	16a#X\JJ)	.	.	.	.	.	.	.	.	.	.	.	.	.
!	!	!	!	!	!	!	!	!	!	!	!	!LO:TX:a:t=P:w źrodle po łamaniu systemu pare taktów skreślonych przez skryptora:problem	!	!	!	!	!	!
!	!	!	!	!	!	!	!	!	!	!	!	!LO:LB:g=original	!	!	!	!	!	!
=42	=42	=42	=42	=42	=42	=42	=42	=42	=42	=42	=42	=42	=42	=42	=42	=42	=42	=42
!	!	!	!	!	!	!	!	!	!	!	!	!LO:TX:a:Bi:t=5.	!	!	!	!	!	!
!	!	!LO:DY:a:t=%so&colon;	!	!	!	!	!	!	!	!	!	!LO:N:vis=00	!	!	!	!	!	!
16r	.	f	16r	.	4.b\	4.ryy	.	4.ryy	.	4.ryy	.	1.r	.	4.ryy	4.ryy	4.ryy	4.ryy	4.ryy
!	!	!	!	!LO:DY:a	!	!	!	!	!	!	!	!	!	!	!	!	!	!
16D#X\LL	3	.	16f#/LL	f	.	.	.	.	.	.	.	.	.	.	.	.	.	.
16D#\	3	.	16f#/	.	.	.	.	.	.	.	.	.	.	.	.	.	.	.
16E\	3	.	16g#/	.	.	.	.	.	.	.	.	.	.	.	.	.	.	.
16E\	7	.	16g#/	.	.	.	.	.	.	.	.	.	.	.	.	.	.	.
16F#\JJ	7	.	16a/JJ	.	.	.	.	.	.	.	.	.	.	.	.	.	.	.
=43	=43	=43	=43	=43	=43	=43	=43	=43	=43	=43	=43	=43	=43	=43	=43	=43	=43	=43
8E\	3	.	8g#/	.	16r	4.ryy	.	4.ryy	.	4.ryy	.	.	.	4.ryy	4.ryy	4.ryy	4.ryy	4.ryy
.	.	.	.	.	(>16bb\LL	.	.	.	.	.	.	.	.	.	.	.	.	.
8r	.	.	8r	.	16gg#\	.	.	.	.	.	.	.	.	.	.	.	.	.
.	.	.	.	.	16dd#X\	.	.	.	.	.	.	.	.	.	.	.	.	.
8r	.	.	8r	.	16ee\	.	.	.	.	.	.	.	.	.	.	.	.	.
.	.	.	.	.	16a#X\JJ)	.	.	.	.	.	.	.	.	.	.	.	.	.
!LO:LB:g=original	!	!	!	!	!	!	!	!	!	!	!	!	!	!	!	!	!	!
=44	=44	=44	=44	=44	=44	=44	=44	=44	=44	=44	=44	=44	=44	=44	=44	=44	=44	=44
16r	.	.	16r	.	4.b\	4.ryy	.	4.ryy	.	4.ryy	.	.	.	4.ryy	4.ryy	4.ryy	4.ryy	4.ryy
16D#X\LL	3	.	16f#/LL	.	.	.	.	.	.	.	.	.	.	.	.	.	.	.
16D#\	3	.	16f#/	.	.	.	.	.	.	.	.	.	.	.	.	.	.	.
16E\	3	.	16g#/	.	.	.	.	.	.	.	.	.	.	.	.	.	.	.
16E\	3	.	16g#/	.	.	.	.	.	.	.	.	.	.	.	.	.	.	.
16F#\JJ	3	.	16a/JJ	.	.	.	.	.	.	.	.	.	.	.	.	.	.	.
=45	=45	=45	=45	=45	=45	=45	=45	=45	=45	=45	=45	=45	=45	=45	=45	=45	=45	=45
!	!	!	!LO:TX:a:t=P:mixed beam:problem	!	!	!	!	!	!	!	!	!	!	!	!	!	!	!
8E\	3	.	16g#/LL	.	16r	4.ryy	.	4.ryy	.	4.ryy	.	.	.	4.ryy	4.ryy	4.ryy	4.ryy	4.ryy
.	.	.	16gg#\	.	(>16bb\LL	.	.	.	.	.	.	.	.	.	.	.	.	.
8r	.	.	16ee\	.	16gg#\	.	.	.	.	.	.	.	.	.	.	.	.	.
.	.	.	16b\	.	16ee\	.	.	.	.	.	.	.	.	.	.	.	.	.
8E\	3	.	16g#\	.	16b\	.	.	.	.	.	.	.	.	.	.	.	.	.
.	.	.	16e\JJ	.	16g#\JJ)	.	.	.	.	.	.	.	.	.	.	.	.	.
=46	=46	=46	=46	=46	=46	=46	=46	=46	=46	=46	=46	=46	=46	=46	=46	=46	=46	=46
!LO:TX:a:t=P:mixed beam:problem	!	!	!	!	!	!	!	!	!	!	!	!	!	!	!	!	!	!
8B\L	4	.	8e/L	.	8g#/L	4.ryy	.	4.ryy	.	4.ryy	.	4.r	.	4.ryy	4.ryy	4.ryy	4.ryy	4.ryy
8BB/J	#	.	8d#X/J	.	8f#/J	.	.	.	.	.	.	.	.	.	.	.	.	.
8r	.	.	8r	.	8r	.	.	.	.	.	.	.	.	.	.	.	.	.
=47	=47	=47	=47	=47	=47	=47	=47	=47	=47	=47	=47	=47	=47	=47	=47	=47	=47	=47
!	!	!LO:DY:a:t=%so&colon;	!	!	!	!	!	!	!	!	!	!	!	!	!	!	!	!
8E\	.	p	4.r	.	(<16e/LL	4.ryy	.	4.ryy	.	4.ryy	.	(>16e/LL	be-	4.ryy	4.ryy	4.ryy	4.ryy	4.ryy
.	.	.	.	.	32f#/L	.	.	.	.	.	.	32f#/L	.	.	.	.	.	.
.	.	.	.	.	32g#/JJJ)	.	.	.	.	.	.	32g#/JJJ)	.	.	.	.	.	.
8r	.	.	.	.	8f#/L|	.	.	.	.	.	.	8f#/	ne-	.	.	.	.	.
8r	.	.	.	.	8e/J|	.	.	.	.	.	.	8e/	.	.	.	.	.	.
!	!	!	!LO:LB:g=original	!	!	!	!	!	!	!	!	!	!	!	!	!	!	!
=48	=48	=48	=48	=48	=48	=48	=48	=48	=48	=48	=48	=48	=48	=48	=48	=48	=48	=48
8E\	.	.	16e/LL	.	(<16g#/LL	4.ryy	.	4.ryy	.	4.ryy	.	16g#\LL	-dic-	4.ryy	4.ryy	4.ryy	4.ryy	4.ryy
.	.	.	32f#/L	.	32a/L	.	.	.	.	.	.	32a\L	.	.	.	.	.	.
.	.	.	32g#/JJJ	.	32b/JJJ)	.	.	.	.	.	.	32b\JJJ	.	.	.	.	.	.
8r	.	.	8f#/L	.	8a/L|	.	.	.	.	.	.	8a\	-tus	.	.	.	.	.
8r	.	.	8e/J	.	8g#/J|	.	.	.	.	.	.	8g#\	qui	.	.	.	.	.
!	!	!	!	!	!LO:LB:g=original	!	!	!	!	!	!	!	!	!	!	!	!	!
=49	=49	=49	=49	=49	=49	=49	=49	=49	=49	=49	=49	=49	=49	=49	=49	=49	=49	=49
8E\L	.	.	8g#/L	.	(<32b/LLL	4.ryy	.	4.ryy	.	4.ryy	.	(>32b\LLL	ve-	4.ryy	4.ryy	4.ryy	4.ryy	4.ryy
.	.	.	.	.	32g#/	.	.	.	.	.	.	32g#\	.	.	.	.	.	.
.	.	.	.	.	32f#/	.	.	.	.	.	.	32f#\	.	.	.	.	.	.
.	.	.	.	.	32e/JJJ)	.	.	.	.	.	.	32e\JJJ)	.	.	.	.	.	.
8G#\	6	.	8b/	.	8.ee\L	.	.	.	.	.	.	8.ee\	.	.	.	.	.	.
8E\J	.	.	8b/J	.	.	.	.	.	.	.	.	.	.	.	.	.	.	.
.	.	.	.	.	16ddn\Jk	.	.	.	.	.	.	16ddn\	.	.	.	.	.	.
=50	=50	=50	=50	=50	=50	=50	=50	=50	=50	=50	=50	=50	=50	=50	=50	=50	=50	=50
8G#\L	3	.	8e/L	.	8cc#\L	4.ryy	.	4.ryy	.	4.ryy	.	8cc#\	.	4.ryy	4.ryy	4.ryy	4.ryy	4.ryy
8E\	5	.	8g#/J	.	8b\J	.	.	.	.	.	.	8b\	-nit	.	.	.	.	.
8G#\J	.	.	8r	.	8r	.	.	.	.	.	.	8r	.	.	.	.	.	.
=51	=51	=51	=51	=51	=51	=51	=51	=51	=51	=51	=51	=51	=51	=51	=51	=51	=51	=51
8A\	3	.	16c#/LL	.	(>16cc#\LL	4.ryy	.	4.ryy	.	4.ryy	.	(>16cc#\LL	in	4.ryy	4.ryy	4.ryy	4.ryy	4.ryy
.	.	.	16e#X/	.	16ee#X\	.	.	.	.	.	.	16ee#X\)	.	.	.	.	.	.
8r	.	.	16f#/	.	16ff#\	.	.	.	.	.	.	(>16ff#\	no-	.	.	.	.	.
.	.	.	16g#/	.	16gg#\	.	.	.	.	.	.	16gg#\	.	.	.	.	.	.
8B\	6	.	16a/	.	16aa\	.	.	.	.	.	.	16aa\	.	.	.	.	.	.
.	.	.	16f#/JJ	.	16ff#\JJ)	.	.	.	.	.	.	16ff#\JJ)	.	.	.	.	.	.
=52	=52	=52	=52	=52	=52	=52	=52	=52	=52	=52	=52	=52	=52	=52	=52	=52	=52	=52
.	.	.	.	.	.	.	.	.	.	.	.	8qqee/	.	.	.	.	.	.
8B\L	#	.	4d#X/	.	4dd#X\	4.ryy	.	4.ryy	.	4.ryy	.	8.dd#X\	.	4.ryy	4.ryy	4.ryy	4.ryy	4.ryy
8A\	.	.	.	.	.	.	.	.	.	.	.	.	.	.	.	.	.	.
.	.	.	.	.	.	.	.	.	.	.	.	16dd#\	-mi-	.	.	.	.	.
8G#\J	6	.	8e/	.	8ee\	.	.	.	.	.	.	8ee\	-ne	.	.	.	.	.
=53	=53	=53	=53	=53	=53	=53	=53	=53	=53	=53	=53	=53	=53	=53	=53	=53	=53	=53
!LO:TX:a:t=P:mixed beam:problem	!	!	!	!	!	!	!	!	!	!	!	!	!	!	!	!	!	!
8A\L	6 5	.	16r	.	16r	4.ryy	.	4.ryy	.	4.ryy	.	16r	.	4.ryy	4.ryy	4.ryy	4.ryy	4.ryy
.	.	.	16cc#\LL	.	16cc#/LL	.	.	.	.	.	.	16cc#`>\LL	do-	.	.	.	.	.
8B\	4 x	.	16b\	.	16b/	.	.	.	.	.	.	(>16b\	.	.	.	.	.	.
.	.	.	16a\	.	16a/	.	.	.	.	.	.	16a\JJ)	.	.	.	.	.	.
!	!	!	!	!	!	!	!	!	!	!	!	!LO:LB:g=original	!	!	!	!	!	!
8BB/J	# x	.	16g#\	.	16g#/	.	.	.	.	.	.	16g#/LL	-mi-	.	.	.	.	.
.	.	.	16f#\JJ	.	16f#/JJ	.	.	.	.	.	.	16f#/JJ	.	.	.	.	.	.
=54	=54	=54	=54	=54	=54	=54	=54	=54	=54	=54	=54	=54	=54	=54	=54	=54	=54	=54
!	!	!	!LO:TX:a:t=P:mixed beam:problem	!	!LO:TX:a:t=P:mixed beam:problem	!	!	!	!	!	!	!	!	!	!	!	!	!
8E\L	.	.	8e/L	.	8e/L	4.ryy	.	4.ryy	.	4.ryy	.	8e/	-ni	4.ryy	4.ryy	4.ryy	4.ryy	4.ryy
8c#\	6	.	8cc#\	.	8ee\	.	.	.	.	.	.	8ee\	be-	.	.	.	.	.
8B\J	.	.	8cc#\J	.	8ee\J	.	.	.	.	.	.	8ee\	-ne-	.	.	.	.	.
=55	=55	=55	=55	=55	=55	=55	=55	=55	=55	=55	=55	=55	=55	=55	=55	=55	=55	=55
8A#X\	5/	.	8cc#\	.	8ee\	4.ryy	.	4.ryy	.	4.ryy	.	(>16ee\LL	-dic-	4.ryy	4.ryy	4.ryy	4.ryy	4.ryy
.	.	.	.	.	.	.	.	.	.	.	.	16ggn\	.	.	.	.	.	.
8r	.	.	8r	.	8r	.	.	.	.	.	.	16ff#\	.	.	.	.	.	.
.	.	.	.	.	.	.	.	.	.	.	.	16ee\	.	.	.	.	.	.
8F#\	.	.	8cc#\	.	8ee\	.	.	.	.	.	.	16dd\	.	.	.	.	.	.
.	.	.	.	.	.	.	.	.	.	.	.	16cc#\JJ)	.	.	.	.	.	.
=56	=56	=56	=56	=56	=56	=56	=56	=56	=56	=56	=56	=56	=56	=56	=56	=56	=56	=56
*	*	*	*tremolo	*	*tremolo	*	*	*	*	*	*	*	*	*	*	*	*	*
!	!	!	!	!	!LO:TX:a:t=P:w źródle trzy kreski nad nutą [ilość nut / detache]:problem	!	!	!	!	!	!	!	!	!	!	!	!	!
!	!	!	!	!	!LO:TX:a:t=P:znak początku repetycji:problem	!	!	!	!	!	!	!	!	!	!	!	!	!
8B\L	8 7	.	8b\L	.	8dd\L	4.ryy	.	4.ryy	.	4.ryy	.	8dd\	-tus	4.ryy	4.ryy	4.ryy	4.ryy	4.ryy
*	*	*	*	*	*	*	*	*	*	*	*	*	*ij	*	*	*	*	*
8B\	.	.	8b\	.	8dd\	.	.	.	.	.	.	8dd\	be-	.	.	.	.	.
8An\J	.	.	8b\J	.	8dd\J	.	.	.	.	.	.	8dd\	-ne-	.	.	.	.	.
!	!	!	!	!	!LO:TX:a:t=P:znak końca repetycji:problem	!	!	!	!	!	!	!	!	!	!	!	!	!
*	*	*	*Xtremolo	*	*Xtremolo	*	*	*	*	*	*	*	*	*	*	*	*	*
!LO:LB:g=original	!	!	!	!	!	!	!	!	!	!	!	!	!	!	!	!	!	!
=57	=57	=57	=57	=57	=57	=57	=57	=57	=57	=57	=57	=57	=57	=57	=57	=57	=57	=57
*	*	*	*	*	*tremolo	*	*	*	*	*	*	*	*	*	*	*	*	*
*	*	*	*	*	*rep	*	*	*	*	*	*	*	*	*	*	*	*	*
!	!	!	!	!	!LO:TX:a:t=P:powtórzenie taktu oznaczone znakami repetycji:problem	!	!	!	!	!	!	!	!	!	!	!	!	!
8G#\	5	.	8b\	.	8dd\Lyy	4.ryy	.	4.ryy	.	4.ryy	.	(>16dd\LL	-dic-	4.ryy	4.ryy	4.ryy	4.ryy	4.ryy
.	.	.	.	.	.	.	.	.	.	.	.	16ff#\JJ	.	.	.	.	.	.
8r	.	.	8r	.	8dd\yy	.	.	.	.	.	.	16ee\LL	-tus	.	.	.	.	.
.	.	.	.	.	.	.	.	.	.	.	.	16dd\JJ)	.	.	.	.	.	.
*	*	*	*	*	*	*	*	*	*	*	*	*	*Xij	*	*	*	*	*
!LO:TX:a:Bi:t=v	!	!	!	!	!	!	!	!	!	!	!	!	!	!	!	!	!	!
8E\	.	.	8b\	.	8dd\Jyy	.	.	.	.	.	.	(>16cc#\LL	qui	.	.	.	.	.
.	.	.	.	.	.	.	.	.	.	.	.	16b\JJ)	.	.	.	.	.	.
*	*	*	*	*	*Xrep	*	*	*	*	*	*	*	*	*	*	*	*	*
*	*	*	*	*	*Xtremolo	*	*	*	*	*	*	*	*	*	*	*	*	*
=58	=58	=58	=58	=58	=58	=58	=58	=58	=58	=58	=58	=58	=58	=58	=58	=58	=58	=58
8A\	3 1	.	8a/L	.	(>16cc#\LL	4.ryy	.	4.ryy	.	4.ryy	.	(>16cc#\LL	ve-	4.ryy	4.ryy	4.ryy	4.ryy	4.ryy
.	.	.	.	.	16a\	.	.	.	.	.	.	16a\)	.	.	.	.	.	.
8r	.	.	8cc#/	.	16ee\	.	.	.	.	.	.	(>16ee\	.	.	.	.	.	.
.	.	.	.	.	16cc#\	.	.	.	.	.	.	16cc#\)	.	.	.	.	.	.
8D#X\	.	.	8a/J	.	16aa\	.	.	.	.	.	.	(>16aa\	.	.	.	.	.	.
.	.	.	.	.	16cc#\JJ)	.	.	.	.	.	.	16cc#\JJ)	.	.	.	.	.	.
=59	=59	=59	=59	=59	=59	=59	=59	=59	=59	=59	=59	=59	=59	=59	=59	=59	=59	=59
.	.	.	.	.	.	.	.	.	.	.	.	8qqcc#/	.	.	.	.	.	.
!LO:TX:a:t=P:mixed beam:problem	!	!	!	!	!	!	!	!	!	!	!	!	!	!	!	!	!	!
8E\L	6 4	.	4g#/	.	4b\	4.ryy	.	4.ryy	.	4.ryy	.	4b\	-nit	4.ryy	4.ryy	4.ryy	4.ryy	4.ryy
8EE/J	5 3	.	.	.	.	.	.	.	.	.	.	.	.	.	.	.	.	.
8r	.	.	8r	.	8r	.	.	.	.	.	.	8r	.	.	.	.	.	.
=60	=60	=60	=60	=60	=60	=60	=60	=60	=60	=60	=60	=60	=60	=60	=60	=60	=60	=60
*	*	*	*	*	*^	*	*	*	*	*	*	*	*	*	*	*	*	*
*	*	*	*tremolo	*	*tremolo	*tremolo	*	*	*	*	*	*	*	*	*	*	*	*	*
8E\L	7_ 5_	.	16b\LL	.	16ee/LL	16dd\LL	4.ryy	.	4.ryy	.	4.ryy	.	4dd\	be-	4.ryy	4.ryy	4.ryy	4.ryy	4.ryy
.	.	.	16b\	.	16ee/	16dd\	.	.	.	.	.	.	.	.	.	.	.	.	.
8G#\	.	.	16b\	.	16ee/	16dd\	.	.	.	.	.	.	.	.	.	.	.	.	.
.	.	.	16b\	.	16ee/	16dd\	.	.	.	.	.	.	.	.	.	.	.	.	.
8E\J	X X	.	16b\	.	16ee/	16dd\	.	.	.	.	.	.	8dd\	-ne-	.	.	.	.	.
.	.	.	16b\JJ	.	16ee/JJ	16dd\JJ	.	.	.	.	.	.	.	.	.	.	.	.	.
!	!	!	!LO:LB:g=original	!	!	!	!	!	!	!	!	!	!	!	!	!	!	!	!
=61	=61	=61	=61	=61	=61	=61	=61	=61	=61	=61	=61	=61	=61	=61	=61	=61	=61	=61	=61
8A\L	.	.	16cc# 16a\LL	.	16ee/LL	16cc#\LL	4.ryy	.	4.ryy	.	4.ryy	.	(>16cc#\LL	-dic-	4.ryy	4.ryy	4.ryy	4.ryy	4.ryy
.	.	.	16cc# 16a\	.	16ee/	16cc#\	.	.	.	.	.	.	16aa\JJ)	.	.	.	.	.	.
8c#\	.	.	16cc# 16a\	.	16ee/	16cc#\	.	.	.	.	.	.	8ee`>\	-tus	.	.	.	.	.
.	.	.	16cc# 16a\	.	16ee/	16cc#\	.	.	.	.	.	.	.	.	.	.	.	.	.
8A\J	.	.	16cc# 16a\	.	16ee/	16cc#\	.	.	.	.	.	.	8r	.	.	.	.	.	.
.	.	.	16cc# 16a\JJ	.	16ee/JJ	16cc#\JJ	.	.	.	.	.	.	.	.	.	.	.	.	.
!	!	!	!	!	!LO:LB:g=original	!	!	!	!	!	!	!	!	!	!	!	!	!	!
=62	=62	=62	=62	=62	=62	=62	=62	=62	=62	=62	=62	=62	=62	=62	=62	=62	=62	=62	=62
*	*	*	*	*	*	*	*	*	*	*	*	*	*	*ij	*	*	*	*	*
8E\L	7_ 5_	.	16b\LL	.	16ee/LL	16dd\LL	4.ryy	.	4.ryy	.	4.ryy	.	4dd\	be-	4.ryy	4.ryy	4.ryy	4.ryy	4.ryy
.	.	.	16b\	.	16ee/	16dd\	.	.	.	.	.	.	.	.	.	.	.	.	.
8G#\	.	.	16b\	.	16ee/	16dd\	.	.	.	.	.	.	.	.	.	.	.	.	.
.	.	.	16b\	.	16ee/	16dd\	.	.	.	.	.	.	.	.	.	.	.	.	.
8E\J	X X	.	16b\	.	16ee/	16dd\	.	.	.	.	.	.	8dd\	-ne-	.	.	.	.	.
.	.	.	16b\JJ	.	16ee/JJ	16dd\JJ	.	.	.	.	.	.	.	.	.	.	.	.	.
*	*	*	*Xtremolo	*	*Xtremolo	*Xtremolo	*	*	*	*	*	*	*	*	*	*	*	*	*
=63	=63	=63	=63	=63	=63	=63	=63	=63	=63	=63	=63	=63	=63	=63	=63	=63	=63	=63	=63
4A\	.	.	4cc#\	.	4ee/	4cc#\	4.ryy	.	4.ryy	.	4.ryy	.	16cc#\LL	-dic-	4.ryy	4.ryy	4.ryy	4.ryy	4.ryy
.	.	.	.	.	.	.	.	.	.	.	.	.	16aa\JJ	.	.	.	.	.	.
.	.	.	.	.	.	.	.	.	.	.	.	.	8ee\	-tus	.	.	.	.	.
*	*	*	*	*	*	*	*	*	*	*	*	*	*	*Xij	*	*	*	*	*
8c#\	6	.	8a/	.	8ee\	8ryy	.	.	.	.	.	.	8ee\	qui	.	.	.	.	.
*	*	*	*	*	*v	*v	*	*	*	*	*	*	*	*	*	*	*	*	*
=64	=64	=64	=64	=64	=64	=64	=64	=64	=64	=64	=64	=64	=64	=64	=64	=64	=64	=64
*tremolo	*	*	*	*	*tremolo	*	*	*	*	*	*	*	*	*	*	*	*	*
!	!	!	!	!	!LO:TX:a:t=P:w źródle trzy kreski nad nutą [ilość nut / detache]:problem	!	!	!	!	!	!	!	!	!	!	!	!	!
8d\L	.	.	8a/L	.	8ff#\L	4.ryy	.	4.ryy	.	4.ryy	.	(>32ff#\LLL	ve-	4.ryy	4.ryy	4.ryy	4.ryy	4.ryy
.	.	.	.	.	.	.	.	.	.	.	.	32ggn\	.	.	.	.	.	.
.	.	.	.	.	.	.	.	.	.	.	.	32ff#\	.	.	.	.	.	.
.	.	.	.	.	.	.	.	.	.	.	.	32ee\JJJ	.	.	.	.	.	.
8d\	.	.	8a/	.	8ff#\	.	.	.	.	.	.	8ff#\)	.	.	.	.	.	.
8d\J	.	.	8a/J	.	8ff#\J	.	.	.	.	.	.	8r	.	.	.	.	.	.
*Xtremolo	*	*	*	*	*	*	*	*	*	*	*	*	*	*	*	*	*	*
=65	=65	=65	=65	=65	=65	=65	=65	=65	=65	=65	=65	=65	=65	=65	=65	=65	=65	=65
*	*	*	*tremolo	*	*	*	*	*	*	*	*	*	*	*	*	*	*	*
4.d\	.	.	8a/L	.	8ff#\L	4.ryy	.	4.ryy	.	4.ryy	.	16r	.	4.ryy	4.ryy	4.ryy	4.ryy	4.ryy
.	.	.	.	.	.	.	.	.	.	.	.	8a\L	.	.	.	.	.	.
.	.	.	8a/	.	8ff#\	.	.	.	.	.	.	.	.	.	.	.	.	.
.	.	.	.	.	.	.	.	.	.	.	.	8dd\	.	.	.	.	.	.
.	.	.	8a/J	.	8ff#\J	.	.	.	.	.	.	.	.	.	.	.	.	.
.	.	.	.	.	.	.	.	.	.	.	.	16ff#\Jk	.	.	.	.	.	.
!	!	!	!	!	!	!	!	!	!	!	!	!LO:LB:g=original	!	!	!	!	!	!
=66	=66	=66	=66	=66	=66	=66	=66	=66	=66	=66	=66	=66	=66	=66	=66	=66	=66	=66
*tremolo	*	*	*	*	*	*	*	*	*	*	*	*	*	*	*	*	*	*
8c#\L	6_	.	8a/L	.	8ee\L	4.ryy	.	4.ryy	.	4.ryy	.	(>32ee\LLL	.	4.ryy	4.ryy	4.ryy	4.ryy	4.ryy
.	.	.	.	.	.	.	.	.	.	.	.	32ff#\	.	.	.	.	.	.
.	.	.	.	.	.	.	.	.	.	.	.	32ee\	.	.	.	.	.	.
.	.	.	.	.	.	.	.	.	.	.	.	32dd\JJJ)	.	.	.	.	.	.
8c#\	.	.	8a/	.	8ee\	.	.	.	.	.	.	8ee\	.	.	.	.	.	.
8c#\J	.	.	8a/J	.	8ee\J	.	.	.	.	.	.	8r	.	.	.	.	.	.
=67	=67	=67	=67	=67	=67	=67	=67	=67	=67	=67	=67	=67	=67	=67	=67	=67	=67	=67
8c#\L	.	.	8a/L	.	8ee\L	4.ryy	.	4.ryy	.	4.ryy	.	16r	.	4.ryy	4.ryy	4.ryy	4.ryy	4.ryy
.	.	.	.	.	.	.	.	.	.	.	.	8a\L	.	.	.	.	.	.
8c#\	.	.	8a/	.	8ee\	.	.	.	.	.	.	.	.	.	.	.	.	.
.	.	.	.	.	.	.	.	.	.	.	.	8cc#\	.	.	.	.	.	.
8c#\J	.	.	8a/J	.	8ee\J	.	.	.	.	.	.	.	.	.	.	.	.	.
.	.	.	.	.	.	.	.	.	.	.	.	16ee\Jk	.	.	.	.	.	.
=68	=68	=68	=68	=68	=68	=68	=68	=68	=68	=68	=68	=68	=68	=68	=68	=68	=68	=68
8B\L	7	.	8a/L	.	8dd\L	4.ryy	.	4.ryy	.	4.ryy	.	(>32dd\LLL	.	4.ryy	4.ryy	4.ryy	4.ryy	4.ryy
.	.	.	.	.	.	.	.	.	.	.	.	32ee\	.	.	.	.	.	.
.	.	.	.	.	.	.	.	.	.	.	.	32dd\	.	.	.	.	.	.
.	.	.	.	.	.	.	.	.	.	.	.	32cc#\JJJ)	.	.	.	.	.	.
8B\	.	.	8a/	.	8dd\	.	.	.	.	.	.	8dd\	.	.	.	.	.	.
8B\J	.	.	8a/J	.	8dd\J	.	.	.	.	.	.	8r	.	.	.	.	.	.
=69	=69	=69	=69	=69	=69	=69	=69	=69	=69	=69	=69	=69	=69	=69	=69	=69	=69	=69
8E\L	#	.	8g#/L	.	8dd\L	4.ryy	.	4.ryy	.	4.ryy	.	16r	.	4.ryy	4.ryy	4.ryy	4.ryy	4.ryy
.	.	.	.	.	.	.	.	.	.	.	.	8g#\L	.	.	.	.	.	.
8E\	.	.	8g#/	.	8dd\	.	.	.	.	.	.	.	.	.	.	.	.	.
.	.	.	.	.	.	.	.	.	.	.	.	8b\	.	.	.	.	.	.
8E\J	.	.	8g#/J	.	8dd\J	.	.	.	.	.	.	.	.	.	.	.	.	.
.	.	.	.	.	.	.	.	.	.	.	.	16dd\Jk	.	.	.	.	.	.
*Xtremolo	*	*	*Xtremolo	*	*Xtremolo	*	*	*	*	*	*	*	*	*	*	*	*	*
=70	=70	=70	=70	=70	=70	=70	=70	=70	=70	=70	=70	=70	=70	=70	=70	=70	=70	=70
8A\	.	.	8a/	.	4cc#\	4.ryy	.	4.ryy	.	4.ryy	.	16cc#\	-nit	4.ryy	4.ryy	4.ryy	4.ryy	4.ryy
.	.	.	.	.	.	.	.	.	.	.	.	16a\	in	.	.	.	.	.
8r	.	.	8r	.	.	.	.	.	.	.	.	8a\	no-	.	.	.	.	.
8r	.	.	8r	.	8r	.	.	.	.	.	.	16a\	-mi-	.	.	.	.	.
.	.	.	.	.	.	.	.	.	.	.	.	16a\	-ne	.	.	.	.	.
!LO:LB:g=original	!	!	!	!	!	!	!	!	!	!	!	!	!	!	!	!	!	!
=71	=71	=71	=71	=71	=71	=71	=71	=71	=71	=71	=71	=71	=71	=71	=71	=71	=71	=71
!	!	!	!	!	!	!	!	!	!	!	!	!LO:N:vis=4.	!	!	!	!	!	!
4.A\	.	.	4.e 4.c#/	.	(<32a/LLL	4.ryy	.	4.ryy	.	4.ryy	.	4a\	do-	4.ryy	4.ryy	4.ryy	4.ryy	4.ryy
.	.	.	.	.	32cc#/J)	.	.	.	.	.	.	.	.	.	.	.	.	.
.	.	.	.	.	16e/JJ|	.	.	.	.	.	.	.	.	.	.	.	.	.
.	.	.	.	.	(<32a/LLL	.	.	.	.	.	.	.	.	.	.	.	.	.
.	.	.	.	.	32cc#/J)	.	.	.	.	.	.	.	.	.	.	.	.	.
.	.	.	.	.	16e/JJ|	.	.	.	.	.	.	.	.	.	.	.	.	.
!	!	!	!	!	!	!	!	!	!	!	!	!LO:TX:a:t=P:mixed beam:problem	!	!	!	!	!	!
!	!	!	!	!	!	!	!	!	!	!	!	!LO:N:vis=32	!	!	!	!	!	!
.	.	.	.	.	8a/	.	.	.	.	.	.	16cc#\LL	.	.	.	.	.	.
!	!	!	!	!	!	!	!	!	!	!	!	!LO:N:vis=32	!	!	!	!	!	!
.	.	.	.	.	.	.	.	.	.	.	.	16e/JJ	.	.	.	.	.	.
=72	=72	=72	=72	=72	=72	=72	=72	=72	=72	=72	=72	=72	=72	=72	=72	=72	=72	=72
!	!	!	!	!	!	!	!	!	!	!	!	!LO:N:vis=4.	!	!	!	!	!	!
4.A\	.	.	4.e 4.c#/	.	(<32a/LLL	4.ryy	.	4.ryy	.	4.ryy	.	4a\	.	4.ryy	4.ryy	4.ryy	4.ryy	4.ryy
.	.	.	.	.	32cc#/J)	.	.	.	.	.	.	.	.	.	.	.	.	.
.	.	.	.	.	16e/JJ|	.	.	.	.	.	.	.	.	.	.	.	.	.
.	.	.	.	.	(<32a/LLL	.	.	.	.	.	.	.	.	.	.	.	.	.
.	.	.	.	.	32cc#/J)	.	.	.	.	.	.	.	.	.	.	.	.	.
.	.	.	.	.	16e/JJ|	.	.	.	.	.	.	.	.	.	.	.	.	.
!	!	!	!	!	!	!	!	!	!	!	!	!LO:TX:a:t=P:mixed beam:problem	!	!	!	!	!	!
!	!	!	!	!	!	!	!	!	!	!	!	!LO:N:vis=32	!	!	!	!	!	!
.	.	.	.	.	8a/	.	.	.	.	.	.	16cc#\LL	.	.	.	.	.	.
!	!	!	!	!	!	!	!	!	!	!	!	!LO:N:vis=32	!	!	!	!	!	!
.	.	.	.	.	.	.	.	.	.	.	.	16e/JJ	.	.	.	.	.	.
=73	=73	=73	=73	=73	=73	=73	=73	=73	=73	=73	=73	=73	=73	=73	=73	=73	=73	=73
!	!	!	!	!	!LO:TX:a:t=P:mixed beam:problem	!	!	!	!	!	!	!LO:TX:a:t=P:mixed beam:problem	!	!	!	!	!	!
8D/L	8 6	.	16a\LL	.	(>16f#/LL	4.ryy	.	4.ryy	.	4.ryy	.	16f#/LL	.	4.ryy	4.ryy	4.ryy	4.ryy	4.ryy
.	.	.	16dd\	.	16ff#\	.	.	.	.	.	.	16ff#\	.	.	.	.	.	.
8E/	6 4	.	16cc#\	.	16ee\	.	.	.	.	.	.	16ee\	.	.	.	.	.	.
.	.	.	16b\	.	16dd\	.	.	.	.	.	.	16dd\JJ	.	.	.	.	.	.
8E/J	5 3	.	16a\	.	16cc#\	.	.	.	.	.	.	16cc#\LL	-mi-	.	.	.	.	.
.	.	.	16g#\JJ	.	16b\JJ)	.	.	.	.	.	.	16b\JJ	.	.	.	.	.	.
=74	=74	=74	=74	=74	=74	=74	=74	=74	=74	=74	=74	=74	=74	=74	=74	=74	=74	=74
!	!	!	!	!	!	!	!	!	!	!	!	!LO:SIC:l:s=-ni:v	!	!	!	!	!	!
4A\	.	.	8a/	.	4a/	4.ryy	.	4.ryy	.	4.ryy	.	16a\	-ne	4.ryy	4.ryy	4.ryy	4.ryy	4.ryy
.	.	.	.	.	.	.	.	.	.	.	.	16a\	in	.	.	.	.	.
.	.	.	8r	.	.	.	.	.	.	.	.	8a\	no-	.	.	.	.	.
8r	.	.	8r	.	8r	.	.	.	.	.	.	16a\	-mi-	.	.	.	.	.
.	.	.	.	.	.	.	.	.	.	.	.	16a\	-ne	.	.	.	.	.
!	!	!	!LO:LB:g=original	!	!LO:LB:g=original	!	!	!	!	!	!	!	!	!	!	!	!	!
=75	=75	=75	=75	=75	=75	=75	=75	=75	=75	=75	=75	=75	=75	=75	=75	=75	=75	=75
!	!	!	!	!	!	!	!	!	!	!	!	!LO:N:vis=4.	!	!	!	!	!	!
4.A\	.	.	4.e 4.c#/	.	(>32a\LLL	4.ryy	.	4.ryy	.	4.ryy	.	4a\	do-	4.ryy	4.ryy	4.ryy	4.ryy	4.ryy
.	.	.	.	.	32cc#\J)	.	.	.	.	.	.	.	.	.	.	.	.	.
.	.	.	.	.	16e\JJ|	.	.	.	.	.	.	.	.	.	.	.	.	.
.	.	.	.	.	(>32a\LLL	.	.	.	.	.	.	.	.	.	.	.	.	.
.	.	.	.	.	32cc#\J)	.	.	.	.	.	.	.	.	.	.	.	.	.
.	.	.	.	.	16e\JJ|	.	.	.	.	.	.	.	.	.	.	.	.	.
!	!	!	!	!	!	!	!	!	!	!	!	!LO:TX:a:t=P:mixed beam:problem	!	!	!	!	!	!
!	!	!	!	!	!	!	!	!	!	!	!	!LO:N:vis=32	!	!	!	!	!	!
.	.	.	.	.	8a/|	.	.	.	.	.	.	(>16cc#\LL	.	.	.	.	.	.
!	!	!	!	!	!	!	!	!	!	!	!	!LO:N:vis=32	!	!	!	!	!	!
.	.	.	.	.	.	.	.	.	.	.	.	16e/JJ)	.	.	.	.	.	.
=76	=76	=76	=76	=76	=76	=76	=76	=76	=76	=76	=76	=76	=76	=76	=76	=76	=76	=76
!	!	!	!	!	!	!	!	!	!	!	!	!LO:N:vis=4.	!	!	!	!	!	!
4.A\	.	.	4.e 4.c#/	.	(>32a\LLL	4.ryy	.	4.ryy	.	4.ryy	.	4a\	.	4.ryy	4.ryy	4.ryy	4.ryy	4.ryy
.	.	.	.	.	32cc#\J)	.	.	.	.	.	.	.	.	.	.	.	.	.
.	.	.	.	.	16e\JJ|	.	.	.	.	.	.	.	.	.	.	.	.	.
.	.	.	.	.	(>32a\LLL	.	.	.	.	.	.	.	.	.	.	.	.	.
.	.	.	.	.	32cc#\J)	.	.	.	.	.	.	.	.	.	.	.	.	.
.	.	.	.	.	16e\JJ|	.	.	.	.	.	.	.	.	.	.	.	.	.
!	!	!	!	!	!	!	!	!	!	!	!	!LO:LB:g=original	!	!	!	!	!	!
!	!	!	!	!	!	!	!	!	!	!	!	!LO:TX:a:t=P:mixed beam:problem	!	!	!	!	!	!
!	!	!	!	!	!	!	!	!	!	!	!	!LO:N:vis=32	!	!	!	!	!	!
.	.	.	.	.	8a/	.	.	.	.	.	.	(>16cc#\LL	.	.	.	.	.	.
!	!	!	!	!	!	!	!	!	!	!	!	!LO:N:vis=32	!	!	!	!	!	!
.	.	.	.	.	.	.	.	.	.	.	.	16e/JJ)	.	.	.	.	.	.
=77	=77	=77	=77	=77	=77	=77	=77	=77	=77	=77	=77	=77	=77	=77	=77	=77	=77	=77
!	!	!	!LO:TX:a:t=P:mixed beam:problem	!	!LO:TX:a:t=P:mixed beam:problem	!	!	!	!	!	!	!LO:TX:a:t=P:mixed beam:problem	!	!	!	!	!	!
8D/L	8 6	.	16a/LL	.	(>16f#/LL	4.ryy	.	4.ryy	.	4.ryy	.	16f#/LL	.	4.ryy	4.ryy	4.ryy	4.ryy	4.ryy
.	.	.	16dd\	.	16ff#\	.	.	.	.	.	.	16ff#\	.	.	.	.	.	.
8E/	6 4	.	16cc#\	.	16ee\	.	.	.	.	.	.	16ee\	.	.	.	.	.	.
.	.	.	16b\	.	16dd\	.	.	.	.	.	.	16dd\JJ	.	.	.	.	.	.
8EE/J	5 3	.	16a\	.	16cc#\	.	.	.	.	.	.	16cc#\LL	-mi-	.	.	.	.	.
.	.	.	16g#\JJ	.	16b\JJ)	.	.	.	.	.	.	16b\JJ	.	.	.	.	.	.
=78	=78	=78	=78	=78	=78	=78	=78	=78	=78	=78	=78	=78	=78	=78	=78	=78	=78	=78
4AA/	.	.	4a/	.	4a/	4.ryy	.	4.ryy	.	4.ryy	.	8a\	-ni,	4.ryy	4.ryy	4.ryy	4.ryy	4.ryy
.	.	.	.	.	.	.	.	.	.	.	.	4ryy	.	.	.	.	.	.
8r	.	.	8r	.	8r	.	.	.	.	.	.	.	.	.	.	.	.	.
!	!	!	!LO:TX:a:t=P:W części dopisanej 'da capo' łamania systemu zgodnie ze źródłem:problem	!	!LO:TX:a:t=P:W części dopisanej 'da capo' łamania systemu zgodnie ze źródłem:problem	!	!	!	!	!	!	!	!	!	!	!	!	!
=79	=79	=79	=79||	=79||	=79||	=79	=79	=79	=79	=79	=79	=79	=79	=79	=79	=79	=79	=79
!	!	!	!	!	!LO:TX:a:t=P:W źródle część 'da capo' nie rozpisana:problem	!	!LO:TX:a:t=P:W źródle część 'da capo' nie rozpisana:problem	!	!	!	!	!	!	!	!	!	!	!
!LO:TX:a:t=P:mixed beam:problem	!	!	!LO:TX:a:Bi:t=Da Capo al Segno ;;	!	!LO:TX:a:Bi:t=Da Capo al Segno ;;	!	!	!	!	!	!	!	!	!	!	!	!	!
!	!	!	!	!	!	!	!	!	!	!	!	!LO:TX:a:t=P:w źródle takty pauz oznaczone poziomą grubą kreską zajmująca jeden takt i '14.' ponad nią:problem	!	!	!	!	!	!
!	!	!	!	!	!	!	!	!	!	!	!	!LO:TX:a:Bi:t=14.	!	!	!	!	!	!
8A\L	.	.	4.r	.	16a'>\LL	4.ryy	.	4.ryy	.	4.ryy	.	0.r	.	4.ryy	4.ryy	4.ryy	4.ryy	4.ryy
.	.	.	.	.	(>32b\L	.	.	.	.	.	.	.	.	.	.	.	.	.
.	.	.	.	.	32cc#\JJJ)	.	.	.	.	.	.	.	.	.	.	.	.	.
8AA/J	.	.	.	.	8b\L	.	.	.	.	.	.	.	.	.	.	.	.	.
8r	.	.	.	.	8a\J	.	.	.	.	.	.	.	.	.	.	.	.	.
=80	=80	=80	=80	=80	=80	=80	=80	=80	=80	=80	=80	=80	=80	=80	=80	=80	=80	=80
!LO:TX:a:t=P:mixed beam:problem	!	!	!	!	!	!	!	!	!	!	!	!	!	!	!	!	!	!
8A\L	.	.	16a/LL	.	(>16cc#\LL	4.ryy	.	4.ryy	.	4.ryy	.	.	.	4.ryy	4.ryy	4.ryy	4.ryy	4.ryy
.	.	.	32b/L	.	32dd\L	.	.	.	.	.	.	.	.	.	.	.	.	.
.	.	.	32cc#/JJJ	.	32ee\JJJ)	.	.	.	.	.	.	.	.	.	.	.	.	.
8AA/J	.	.	8b/L	.	8dd\L	.	.	.	.	.	.	.	.	.	.	.	.	.
8r	.	.	8a/J	.	8cc#\J	.	.	.	.	.	.	.	.	.	.	.	.	.
=81	=81	=81	=81	=81	=81	=81	=81	=81	=81	=81	=81	=81	=81	=81	=81	=81	=81	=81
!	!	!	!LO:TX:a:t=P:mixed beam:problem	!	!	!	!	!	!	!	!	!	!	!	!	!	!	!
8A\L	.	.	8a/L	.	(>32ee\LLL	4.ryy	.	4.ryy	.	4.ryy	.	.	.	4.ryy	4.ryy	4.ryy	4.ryy	4.ryy
.	.	.	.	.	32cc#\	.	.	.	.	.	.	.	.	.	.	.	.	.
.	.	.	.	.	32b\	.	.	.	.	.	.	.	.	.	.	.	.	.
.	.	.	.	.	32a\JJJ)	.	.	.	.	.	.	.	.	.	.	.	.	.
8c#\	6	.	8ee\	.	8.aa\L	.	.	.	.	.	.	.	.	.	.	.	.	.
8A\J	.	.	8ee\J	.	.	.	.	.	.	.	.	.	.	.	.	.	.	.
.	.	.	.	.	16ggn\Jk	.	.	.	.	.	.	.	.	.	.	.	.	.
=82	=82	=82	=82	=82	=82	=82	=82	=82	=82	=82	=82	=82	=82	=82	=82	=82	=82	=82
8d\L	.	.	8a/L	.	8ff#\L	4.ryy	.	4.ryy	.	4.ryy	.	.	.	4.ryy	4.ryy	4.ryy	4.ryy	4.ryy
8A\J	.	.	8cc#/J	.	8ee\J	.	.	.	.	.	.	.	.	.	.	.	.	.
8r	.	.	8r	.	8r	.	.	.	.	.	.	.	.	.	.	.	.	.
=83	=83	=83	=83	=83	=83	=83	=83	=83	=83	=83	=83	=83	=83	=83	=83	=83	=83	=83
!	!	!	!	!	!LO:N:vis=16.	!	!	!	!	!	!	!	!	!	!	!	!	!
8B\L	3	.	16dd\LL	.	16dd\LL	4.ryy	.	4.ryy	.	4.ryy	.	.	.	4.ryy	4.ryy	4.ryy	4.ryy	4.ryy
.	.	.	32ee\L	.	32ee\L	.	.	.	.	.	.	.	.	.	.	.	.	.
.	.	.	32ff#\JJJ	.	32ff#\JJJ	.	.	.	.	.	.	.	.	.	.	.	.	.
8G#\	6	.	8.b\L	.	8.b\L	.	.	.	.	.	.	.	.	.	.	.	.	.
8E\J	7	.	.	.	.	.	.	.	.	.	.	.	.	.	.	.	.	.
!	!	!	!	!	!LO:N:vis=8	!	!	!	!	!	!	!	!	!	!	!	!	!
.	.	.	16dd\Jk	.	16dd\Jk	.	.	.	.	.	.	.	.	.	.	.	.	.
=84	=84	=84	=84	=84	=84	=84	=84	=84	=84	=84	=84	=84	=84	=84	=84	=84	=84	=84
!LO:TX:a:t=P:mixed beam:problem	!	!	!	!	!	!	!	!	!	!	!	!	!	!	!	!	!	!
8A\L	.	.	16cc#\LL	.	(>16cc#\LL	4.ryy	.	4.ryy	.	4.ryy	.	.	.	4.ryy	4.ryy	4.ryy	4.ryy	4.ryy
.	.	.	32dd\L	.	32dd\L	.	.	.	.	.	.	.	.	.	.	.	.	.
.	.	.	32ee\JJJ	.	32ee\JJJ)	.	.	.	.	.	.	.	.	.	.	.	.	.
8AA/	.	.	8.a/L	.	(>8.a\L	.	.	.	.	.	.	.	.	.	.	.	.	.
8C#/J	6	.	.	.	.	.	.	.	.	.	.	.	.	.	.	.	.	.
.	.	.	16cc#/Jk	.	16cc#\Jk)	.	.	.	.	.	.	.	.	.	.	.	.	.
=85	=85	=85	=85	=85	=85	=85	=85	=85	=85	=85	=85	=85	=85	=85	=85	=85	=85	=85
8D\L	5	.	16b\LL	.	(>16b\LL	4.ryy	.	4.ryy	.	4.ryy	.	.	.	4.ryy	4.ryy	4.ryy	4.ryy	4.ryy
.	.	.	16dd\	.	16ff#\	.	.	.	.	.	.	.	.	.	.	.	.	.
8E\	4	.	16cc#\	.	16ee\	.	.	.	.	.	.	.	.	.	.	.	.	.
.	.	.	16b\	.	16dd\	.	.	.	.	.	.	.	.	.	.	.	.	.
8E\J	3	.	16a\	.	16cc#\	.	.	.	.	.	.	.	.	.	.	.	.	.
.	.	.	16g#\JJ	.	16b\JJ)	.	.	.	.	.	.	.	.	.	.	.	.	.
=86	=86	=86	=86	=86	=86	=86	=86	=86	=86	=86	=86	=86	=86	=86	=86	=86	=86	=86
!LO:TX:a:t=P:mixed beam:problem	!	!	!	!	!	!	!	!	!	!	!	!	!	!	!	!	!	!
8AA/L	.	.	16a/LL	.	16cc#\LL	4.ryy	.	4.ryy	.	4.ryy	.	.	.	4.ryy	4.ryy	4.ryy	4.ryy	4.ryy
.	.	.	32b/L	.	16dd\JJ	.	.	.	.	.	.	.	.	.	.	.	.	.
.	.	.	32cc#/JJJ	.	.	.	.	.	.	.	.	.	.	.	.	.	.	.
8A\	.	.	8r	.	8ee'>\	.	.	.	.	.	.	.	.	.	.	.	.	.
8AA/J	.	.	8r	.	8r	.	.	.	.	.	.	.	.	.	.	.	.	.
=87	=87	=87	=87	=87	=87	=87	=87	=87	=87	=87	=87	=87	=87	=87	=87	=87	=87	=87
8B\L	3	.	32dd\LLL	.	(>32dd\LLL	4.ryy	.	4.ryy	.	4.ryy	.	1.r	.	4.ryy	4.ryy	4.ryy	4.ryy	4.ryy
.	.	.	32ee\	.	32ee\	.	.	.	.	.	.	.	.	.	.	.	.	.
.	.	.	32ff#\	.	32ff#\	.	.	.	.	.	.	.	.	.	.	.	.	.
.	.	.	32ee\JJJ	.	32ee\JJJ)	.	.	.	.	.	.	.	.	.	.	.	.	.
8G#\	6	.	8.b\L	.	8.b\L	.	.	.	.	.	.	.	.	.	.	.	.	.
8E\J	7	.	.	.	.	.	.	.	.	.	.	.	.	.	.	.	.	.
.	.	.	16dd\Jk	.	16dd\Jk	.	.	.	.	.	.	.	.	.	.	.	.	.
!LO:LB:g=original	!	!	!	!	!	!	!	!	!	!	!	!	!	!	!	!	!	!
=88	=88	=88	=88	=88	=88	=88	=88	=88	=88	=88	=88	=88	=88	=88	=88	=88	=88	=88
!LO:TX:a:t=P:mixed beam:problem	!	!	!	!	!	!	!	!	!	!	!	!	!	!	!	!	!	!
8A\L	.	.	32cc#\LLL	.	(>32cc#\LLL	4.ryy	.	4.ryy	.	4.ryy	.	.	.	4.ryy	4.ryy	4.ryy	4.ryy	4.ryy
.	.	.	32dd\	.	32dd\	.	.	.	.	.	.	.	.	.	.	.	.	.
.	.	.	32ee\	.	32ee\	.	.	.	.	.	.	.	.	.	.	.	.	.
.	.	.	32cc#\JJJ	.	32cc#\JJJ)	.	.	.	.	.	.	.	.	.	.	.	.	.
8AA/	.	.	8.a/L	.	8.a\L	.	.	.	.	.	.	.	.	.	.	.	.	.
8C#/J	.	.	.	.	.	.	.	.	.	.	.	.	.	.	.	.	.	.
.	.	.	16a#X/Jk	.	16a#X\Jk	.	.	.	.	.	.	.	.	.	.	.	.	.
=89	=89	=89	=89	=89	=89	=89	=89	=89	=89	=89	=89	=89	=89	=89	=89	=89	=89	=89
!LO:TX:a:t=P:mixed beam:problem	!	!	!	!	!	!	!	!	!	!	!	!	!	!	!	!	!	!
8D\L	.	.	16b\LL	.	16b\LL	4.ryy	.	4.ryy	.	4.ryy	.	.	.	4.ryy	4.ryy	4.ryy	4.ryy	4.ryy
.	.	.	16ff#\JJ	.	16ff#\JJ	.	.	.	.	.	.	.	.	.	.	.	.	.
.	.	.	.	.	8qqff#/	.	.	.	.	.	.	.	.	.	.	.	.	.
8E\	.	.	16ee\LL	.	16ee\LL	.	.	.	.	.	.	.	.	.	.	.	.	.
.	.	.	32dd\L	.	32dd\L	.	.	.	.	.	.	.	.	.	.	.	.	.
.	.	.	32cc#\JJJ	.	32cc#\JJJ	.	.	.	.	.	.	.	.	.	.	.	.	.
.	.	.	.	.	8qqcc#/	.	.	.	.	.	.	.	.	.	.	.	.	.
8EE/J	.	.	16b/LL	.	16b\LL	.	.	.	.	.	.	.	.	.	.	.	.	.
.	.	.	32a/L	.	32a\L	.	.	.	.	.	.	.	.	.	.	.	.	.
.	.	.	32g#/JJJ	.	32g#\JJJ	.	.	.	.	.	.	.	.	.	.	.	.	.
=90	=90	=90	=90	=90	=90	=90	=90	=90	=90	=90	=90	=90	=90	=90	=90	=90	=90	=90
*tremolo	*	*	*	*	*	*	*	*	*	*	*	*	*	*	*	*	*	*
8AA/L	.	.	8a/	.	8a/	4.ryy	.	4.ryy	.	4.ryy	.	.	.	4.ryy	4.ryy	4.ryy	4.ryy	4.ryy
8AA/	.	.	16r	.	16r	.	.	.	.	.	.	.	.	.	.	.	.	.
.	.	.	16f#/LL	.	16dd\LL	.	.	.	.	.	.	.	.	.	.	.	.	.
8AA/J	.	.	16e/	.	16cc#\	.	.	.	.	.	.	.	.	.	.	.	.	.
.	.	.	16d/JJ	.	16b\JJ	.	.	.	.	.	.	.	.	.	.	.	.	.
=91	=91	=91	=91	=91	=91	=91	=91	=91	=91	=91	=91	=91	=91	=91	=91	=91	=91	=91
8AA/L	.	.	8c#/	.	8a/	4.ryy	.	4.ryy	.	4.ryy	.	2.r	.	4.ryy	4.ryy	4.ryy	4.ryy	4.ryy
8AA/	.	.	16r	.	16r	.	.	.	.	.	.	.	.	.	.	.	.	.
.	.	.	16d/LL	.	16f#/LL	.	.	.	.	.	.	.	.	.	.	.	.	.
8AA/J	.	.	16c#/	.	16e/	.	.	.	.	.	.	.	.	.	.	.	.	.
.	.	.	16B/JJ	.	16d/JJ	.	.	.	.	.	.	.	.	.	.	.	.	.
*Xtremolo	*	*	*	*	*	*	*	*	*	*	*	*	*	*	*	*	*	*
=92	=92	=92	=92	=92	=92	=92	=92	=92	=92	=92	=92	=92	=92	=92	=92	=92	=92	=92
4AA/	.	.	8B/L	.	8d/L	4.ryy	.	4.ryy	.	4.ryy	.	.	.	4.ryy	4.ryy	4.ryy	4.ryy	4.ryy
.	.	.	8A/J	.	8c#/J	.	.	.	.	.	.	.	.	.	.	.	.	.
8ryy	.	.	8r	.	8r;	.	.	.	.	.	.	.	.	.	.	.	.	.
!LO:TX:a:t=P:ozdobna podwójna kreska taktowa &colon;||:problem	!	!	!	!	!	!	!	!	!	!	!	!	!	!	!	!	!	!
!	!	!	!LO:LB:g=original	!	!LO:LB:g=original	!	!	!	!	!	!	!	!	!	!	!	!	!
=||	=||	=||	=||	=||	=||	=||	=||	=||	=||	=||	=||	=||	=||	=||	=||	=||	=||	=
*clefF4	*	*	*clefG2	*	*clefG2	*	*	*	*	*	*	*	*	*	*	*clefG2	*	*
*k[f#c#]	*	*	*k[f#c#]	*	*k[f#c#]	*k[f#c#]	*	*k[f#c#]	*	*k[f#c#]	*	*k[f#c#]	*	*k[f#c#]	*k[f#c#]	*k[f#c#]	*k[f#c#]	*k[f#c#]
*M2/2	*	*	*M2/2	*	*M2/2	*M2/2	*	*M2/2	*	*M2/2	*	*M2/2	*	*M2/2	*M4/4	*M4/4	*M2/2	*M2/2
*met(c|)	*	*	*met(c|)	*	*met(c|)	*met(c|)	*	*met(c|)	*	*met(c|)	*	*met(c|)	*	*met(c|)	*met(c)	*met(c)	*met(c|)	*met(c|)
*2\right	*	*	*2\right	*	*2\right	*2\right	*	*2\right	*	*2\right	*	*2\right	*	*	*2\right	*2\right	*	*
*clefC1	*	*	*	*	*	*	*	*	*	*	*	*	*	*	*	*	*	*
!	!	!	!	!	!	!	!	!	!	!	!	!	!	!	!	!LO:TX:a:t=P:wszystkie nuty mają caudy z prawej strony:problem	!	!
!LO:TX:a:t=P:W źródle klucz C1 wygląda jakby był na drugiej linii jako klucz C2:problem	!	!	!	!	!	!	!	!	!	!	!	!	!	!	!LO:TX:a:t=P:w źródle metrum M4/4:problem	!LO:TX:a:t=P:w źródle metrum M4/4:problem	!	!
!	!	!	!	!	!	!	!	!LO:TX:a:t=P:w źródle przy kluczu błędnie [e# H#]:problem	!	!	!	!LO:TX:a:t=P:znak przykluczowy c# zapisany w dwóch oktawach:problem	!	!	!	!	!	!
!LO:TX:a:t=P:w źródle oznaczenie metryczne alla breve z ogonkiem:problem	!	!	!LO:TX:a:t=P:w źródle oznaczenie metryczne alla breve z ogonkiem:problem	!	!	!LO:TX:a:t=P:w źródle oznaczenie metryczne alla breve z ogonkiem:problem	!	!LO:TX:a:t=P:w źródle oznaczenie metryczne alla breve z ogonkiem:problem	!	!LO:TX:a:t=P:w źródle oznaczenie metryczne alla breve z ogonkiem:problem	!	!	!	!	!	!	!	!
!	!	!	!	!	!	!LO:SIC:o=O:v:t=w źródle 'O' znajduje się przed kluczem i oznaczeniem metrum	!	!LO:SIC:o=O:v:t=w źródle 'O' znajduje się przed kluczem i oznaczeniem metrum	!	!LO:SIC:o=O:v:t=w źródle 'O' znajduje się przed kluczem i oznaczeniem metrum	!	!LO:SIC:o=O:v:t=w źródle 'O' znajduje się przed kluczem i oznaczeniem metrum	!	!	!	!	!	!
!	!	!	!	!	!	!	!	!	!	!LO:TX:a:t=P:w źródle przy kluczu [c# f#]:problem	!	!	!	!	!	!	!	!
!	!	!	!	!	!	!LO:TX:a:t=P:w źródle takty pauz oznaczone poziomą grubą kreską zajmująca jeden takt i '12' ponad nią:problem	!	!	!	!	!	!	!	!	!LO:TX:a:t=P:w źródle takty pauz oznaczone poziomą grubą kreską zajmująca jeden takt i '17.' ponad nią:problem	!LO:TX:a:t=P:w źródle takty pauz oznaczone poziomą grubą kreską zajmująca jeden takt i '17.' ponad nią:problem	!	!
!	!	!	!	!	!	!LO:TX:a:Bi:t=12	!	!LO:TX:b:Bi:t=8	!	!LO:TX:a:Bi:t=4	!	!	!	!	!LO:TX:a:Bi:t=17.	!LO:TX:a:Bi:t=17.	!	!
!LO:TX:b:Bi:t=Oſſana:rj	!	!	!LO:TX:b:Bi:t=Oſana:problem:'Oſana' znajduje się przed kluczem i oznaczeniem metrum	!	!	!	!	!	!	!	!	!	!	!	!LO:TX:a:Bi:t=Oſsan(na)	!LO:TX:b:Bi:t=Oſſan(na):rj	!	!
!LO:TX:a:Bi:t=allo:rj	!	!	!LO:TX:a:Bi:t=allo.	!	!	!	!	!LO:TX:a:Bi:t=allo	!	!LO:TX:a:Bi:t=allo:rj	!	!LO:TX:a:Bi:t=allo	!	!	!	!LO:TX:a:Bi:t=allo.:rj	!	!
4dd\|	.	.	00r	.	4dd\	00r	.	00r	.	00r	.	4dd\	O-	1ryy	00r	00r	1ryy	1ryy
8ee\L|	.	.	.	.	8ee\L	.	.	.	.	.	.	(>8ee\L	.	.	.	.	.	.
8ff#\J|	.	.	.	.	8ff#\J	.	.	.	.	.	.	8ff#\J)	.	.	.	.	.	.
4dd\|	.	.	.	.	4dd\	.	.	.	.	.	.	4dd\	-san-	.	.	.	.	.
4a\|	.	.	.	.	4a/	.	.	.	.	.	.	4a\	-(na)	.	.	.	.	.
=93	=93	=93	=93	=93	=93	=93	=93	=93	=93	=93	=93	=93	=93	=93	=93	=93	=93	=93
4b\|	.	.	.	.	4b\|	.	.	.	.	.	.	(>4b\	in	1ryy	.	.	1ryy	1ryy
4cc#\|	.	.	.	.	4cc#\|	.	.	.	.	.	.	4cc#\)	.	.	.	.	.	.
4dd\|	.	.	.	.	4dd\|	.	.	.	.	.	.	(>4dd\	ex-	.	.	.	.	.
4ee\|	.	.	.	.	4ee\|	.	.	.	.	.	.	4ee\)	.	.	.	.	.	.
=94	=94	=94	=94	=94	=94	=94	=94	=94	=94	=94	=94	=94	=94	=94	=94	=94	=94	=94
4ff#\|	.	.	.	.	4ff#\	.	.	.	.	.	.	(>4ff#\	-cel-	1ryy	.	.	1ryy	1ryy
4cc#\|	.	.	.	.	4cc#\	.	.	.	.	.	.	4cc#\)	.	.	.	.	.	.
!LO:TX:a:t=P:w źródle niejednoznaczny zapis ozdobnika [przyjęto tryl]:problem	!	!	!	!	!	!	!	!	!	!	!	!	!	!	!	!	!	!
[<2ddT>\	.	.	.	.	2dd\	.	.	.	.	.	.	2dd\	-sis	.	.	.	.	.
=95	=95	=95	=95	=95	=95	=95	=95	=95	=95	=95	=95	=95	=95	=95	=95	=95	=95	=95
4dd\]|	.	.	.	.	4dd\	.	.	.	.	.	.	4dd\	o-	1ryy	.	.	1ryy	1ryy
!	!	!	!	!	!	!	!	!	!	!	!	!LO:SIC:l:s=-san-:v	!	!	!	!	!	!
4cc#\|	.	.	.	.	4cc#\	.	.	.	.	.	.	4cc#\	-sa-	.	.	.	.	.
!LO:TX:a:t=P:w źródle niejednoznaczny zapis ozdobnika [przyjęto tryl]:problem	!	!	!	!	!	!	!	!	!	!	!	!	!	!	!	!	!	!
2bT>\	.	.	.	.	2b\	.	.	.	.	.	.	2b\	.	.	.	.	.	.
=96	=96	=96	=96	=96	=96	=96	=96	=96	=96	=96	=96	=96	=96	=96	=96	=96	=96	=96
*^	*	*	*	*	*	*	*	*	*	*	*	*	*	*	*	*	*	*
4a\|	4ryy	.	.	4a/	.	4a/	00r	.	00r	.	4a\	O-	4a\	-na	1ryy	00r	00r	1ryy	1ryy
8b\L|	4ryy	.	.	8b/L	.	4r	.	.	.	.	(>8b\L	.	4r	.	.	.	.	.	.
8cc#\J|	.	.	.	8cc#/J	.	.	.	.	.	.	8cc#\J)	.	.	.	.	.	.	.	.
!	!	!	!	!	!	!	!	!	!	!	!LO:SIC:l:s=-san-:v	!	!	!	!	!	!	!	!
4a/|	4ryy	.	.	4a/	.	4r	.	.	.	.	4a\	-sa-	4r	.	.	.	.	.	.
!LO:TX:a:t=P:w źródle nuta ma caude po prawej stronie [\right]:problem	!	!	!	!	!	!	!	!	!	!	!	!	!	!	!	!	!	!	!
4g#X/|	4e\	.	.	4e/	.	4g#X/	.	.	.	.	4e\	-na	4g#X\	o-	.	.	.	.	.
=97	=97	=97	=97	=97	=97	=97	=97	=97	=97	=97	=97	=97	=97	=97	=97	=97	=97	=97	=97
!LO:TX:a:t=P:w źródle nuta ma caude po prawej stronie [\right]:problem	!	!	!	!	!	!	!	!	!	!	!	!	!	!	!	!	!	!	!
4a/|	4f#\	.	.	4f#/	.	4a/	.	.	.	.	(>4f#\	in	(>4a\	-ſan-	1ryy	.	.	1ryy	1ryy
4b/|	4g#X\	.	.	4g#X/	.	4b/	.	.	.	.	4g#X\)	.	4b\)	.	.	.	.	.	.
4cc#/|	4a\	.	.	4a/	.	4cc#/	.	.	.	.	(>4a\	ex-	(>4cc#\	-na	.	.	.	.	.
4dd/|	4b\	.	.	4b/	.	4dd/	.	.	.	.	4b\)	.	4dd\)	.	.	.	.	.	.
=98	=98	=98	=98	=98	=98	=98	=98	=98	=98	=98	=98	=98	=98	=98	=98	=98	=98	=98	=98
2ee/	4cc#\	.	.	4cc#\	.	2ee\	.	.	.	.	(>4cc#\	-cel-	2ee\	in	1ryy	.	.	1ryy	1ryy
.	4a\	.	.	4a/	.	.	.	.	.	.	4a\	.	.	.	.	.	.	.	.
!LO:LB:g=original	!	!	!	!	!	!	!	!	!	!	!	!	!	!	!	!	!	!	!
!	!	!	!	!	!	!LO:SIC:s=4dd:v	!	!	!	!	!	!	!	!	!	!	!	!	!
4ff#/	4dd\	.	.	4dd\	.	4ee\	.	.	.	.	4dd\	.	(>4ff#\	ex-	.	.	.	.	.
4dd/	4f#\	.	.	4f#/	.	4dd\	.	.	.	.	4f#\	.	4dd\)	.	.	.	.	.	.
=99	=99	=99	=99	=99	=99	=99	=99	=99	=99	=99	=99	=99	=99	=99	=99	=99	=99	=99	=99
2dd/	1e	.	.	1e	.	2dd\	.	.	.	.	1e)	.	(>2dd\	-cel-	1ryy	.	.	1ryy	1ryy
2cc#/	.	.	.	.	.	2cc#\	.	.	.	.	.	.	2cc#\)	.	.	.	.	.	.
!	!	!	!	!	!	!	!	!	!	!	!	!	!	!LO:LB:g=original	!	!	!	!	!
*v	*v	*	*	*	*	*	*	*	*	*	*	*	*	*	*	*	*	*	*
=100	=100	=100	=100	=100	=100	=100	=100	=100	=100	=100	=100	=100	=100	=100	=100	=100	=100	=100
*clefC4	*	*	*	*	*	*	*	*	*	*	*	*	*	*	*	*	*	*
4d\	5 3	.	2f#/	.	2.dd\	00r	.	4d\	O-	2f#\	-sis	2dd\	-sis	1ryy	00r	00r	1ryy	1ryy
!LO:TX:a:t=P:w źródle nuta ma caude po prawej stronie [\right]:problem	!	!	!	!	!	!	!	!	!	!	!	!	!	!	!	!	!	!
8e\L	.	.	.	.	.	.	.	(>8e\L	.	.	.	.	.	.	.	.	.	.
!LO:TX:a:t=P:w źródle nuta ma caude po prawej stronie [\right]:problem	!	!	!	!	!	!	!	!	!	!	!	!	!	!	!	!	!	!
8f#\J	.	.	.	.	.	.	.	8f#\J)	.	.	.	.	.	.	.	.	.	.
!	!	!	!	!	!	!	!	!LO:SIC:l:s=-san-:v	!	!	!	!	!	!	!	!	!	!
4d\	.	.	4r	.	.	.	.	4d'>\	-sa-	4r	.	4r	.	.	.	.	.	.
4A\	3 x	.	4a/	.	4cc#\	.	.	4A'>\	-na	4a\	O-	4cc#\	o-	.	.	.	.	.
!	!	!	!	!	!LO:LB:g=original	!	!	!	!	!	!	!	!	!	!	!	!	!
=101	=101	=101	=101	=101	=101	=101	=101	=101	=101	=101	=101	=101	=101	=101	=101	=101	=101	=101
!	!	!	!	!	!	!	!	!	!	!LO:SIC:l:s=-san-:v	!	!	!	!	!	!	!	!
4B\	3	.	2a/	.	4dd\	.	.	4B'>\	in	2a\	-sa-	(>4dd\	-san-	1ryy	.	.	1ryy	1ryy
4c#\	3	.	.	.	4ee\	.	.	4c#'>\	ex-	.	.	4ee\)	.	.	.	.	.	.
4d\	3	.	2a/	.	4ff#\	.	.	(>4d\	-cel-	2a\	-na	(>4ff#\	-na	.	.	.	.	.
4e\	6	.	.	.	4cc#\	.	.	4e\)	.	.	.	4cc#\)	.	.	.	.	.	.
=102	=102	=102	=102	=102	=102	=102	=102	=102	=102	=102	=102	=102	=102	=102	=102	=102	=102	=102
4f#\	6 x	.	2a/	.	4dd\	.	.	4f#'>\	.	2a\	in	(>4dd\	in	1ryy	.	.	1ryy	1ryy
4c#\	10 x	.	.	.	4ee\	.	.	4c#'>\	.	.	.	4ee\)	.	.	.	.	.	.
!	!	!	!	!	!	!	!	!LO:TX:a:t=P:W źródle niejednoznaczny zapis ozdobnika [przyjęto trillo]:problem	!	!	!	!	!	!	!	!	!	!
!	!	!	!	!	!	!	!	!LO:TX:a:B:t=t	!	!	!	!	!	!	!	!	!	!
[<2d\	8 3	.	2a/	.	2ff#\	.	.	2d\	.	2a\	ex-	2ff#\	ex-	.	.	.	.	.
=103	=103	=103	=103	=103	=103	=103	=103	=103	=103	=103	=103	=103	=103	=103	=103	=103	=103	=103
!LO:TX:a:t=P:w źródle nuta ma caude po prawej stronie [\right]:problem	!	!	!	!	!	!	!	!	!	!	!	!	!	!	!	!	!	!
4d\]	4 2	.	4b\	.	4gg#X\	.	.	4d\	.	4b\	-cel-	4gg#X\	-cel-	1ryy	.	.	1ryy	1ryy
!LO:TX:a:t=P:w źródle nuta ma caude po prawej stronie [\right]:problem	!	!	!	!	!	!	!	!	!	!	!	!	!	!	!	!	!	!
4c#\	6 x	.	4cc#\	.	2aa\	.	.	4c#\	.	4cc#\	.	2aa\	.	.	.	.	.	.
2B\	7 x	.	2dd\	.	.	.	.	2B\	.	2dd\	.	.	.	.	.	.	.	.
.	6\ x	.	.	.	4gg#\	.	.	.	.	.	.	4gg#\	.	.	.	.	.	.
!	!	!	!LO:LB:g=original	!	!	!	!	!LO:LB:g=original	!	!	!	!	!	!	!	!	!	!
=104	=104	=104	=104	=104	=104	=104	=104	=104	=104	=104	=104	=104	=104	=104	=104	=104	=104	=104
*clefF4	*	*	*	*	*	*	*	*	*	*	*	*	*	*	*	*	*	*
!	!	!	!	!	!	!LO:TX:a:Bi:t=allo	!	!	!	!	!	!	!	!	!	!	!	!
!	!	!	!LO:TX:a:Bi:t=c	!	!	!	!	!	!	!	!	!	!	!	!	!	!	!
4A\	6_ 3_	.	2cc#\	.	2aa\	4A\	O-	2A\	-sis	2cc#\	-sis	2aa\	-sis	1ryy	00r	00r	1ryy	1ryy
8B\L	.	.	.	.	.	8B\L	.	.	.	.	.	.	.	.	.	.	.	.
8c#\J	X X	.	.	.	.	8c#\J	.	.	.	.	.	.	.	.	.	.	.	.
4A\	.	.	4r	.	2r	4A\	-san-	4r	.	4r	.	2r	.	.	.	.	.	.
4E\	.	.	4g#X/	.	.	4E\	-na	4e\	O-	4g#X\	o-	.	.	.	.	.	.	.
=105	=105	=105	=105	=105	=105	=105	=105	=105	=105	=105	=105	=105	=105	=105	=105	=105	=105	=105
!	!	!	!	!	!LO:TX:b:Bi:t=3.	!	!	!	!	!LO:SIC:l:s=-san-:v	!	!LO:TX:a:Bi:t=3	!	!	!	!	!	!
4F#\	3	.	4a/	.	0r	(>4F#\	in	4e\	-san-	(>4a\	-sa-	0r	.	1ryy	.	.	1ryy	1ryy
4G#X\	3	.	4b/	.	.	4G#X\)	.	4e\	-na	4b\)	.	.	.	.	.	.	.	.
4A\	3	.	4cc#\	.	.	(>4A\	ex-	4e\	in	(>4cc#\	-na	.	.	.	.	.	.	.
4B\	3	.	4dd\	.	.	4B\)	.	4e\	ex-	4dd\)	.	.	.	.	.	.	.	.
!	!	!	!	!	!	!	!	!	!	!LO:LB:g=original	!	!	!	!	!	!	!	!
=106	=106	=106	=106	=106	=106	=106	=106	=106	=106	=106	=106	=106	=106	=106	=106	=106	=106	=106
4c#\	3	.	2ee\	.	.	(>4c#\	-cel-	2g\	-cel-	2ee\	in	.	.	1ryy	.	.	1ryy	1ryy
4A\	.	.	.	.	.	4A\)	.	.	.	.	.	.	.	.	.	.	.	.
4d\	.	.	2dd\	.	.	4d\	.	2f#\	.	2dd\	ex-	.	.	.	.	.	.	.
4F#\	6	.	.	.	.	4F#\	.	.	.	.	.	.	.	.	.	.	.	.
=107	=107	=107	=107	=107	=107	=107	=107	=107	=107	=107	=107	=107	=107	=107	=107	=107	=107	=107
4Gn\	6 5	.	2dd\	.	1r	4Gn\	.	1e	.	2dd\	-cel-	1r	.	1ryy	.	.	1ryy	1ryy
4E\	.	.	.	.	.	4E\	.	.	.	.	.	.	.	.	.	.	.	.
4A\	4 x	.	2cc#\	.	.	4A\	.	.	.	2cc#\	.	.	.	.	.	.	.	.
4AA/	3 x	.	.	.	.	4AA/	.	.	.	.	.	.	.	.	.	.	.	.
=108	=108	=108	=108	=108	=108	=108	=108	=108	=108	=108	=108	=108	=108	=108	=108	=108	=108	=108
4D\	.	.	4dd\	.	4r	4D\	-sis	4f#\	-sis	2dd\	-sis	4r	.	1ryy	1r	1r	1ryy	1ryy
4r	.	.	4r	.	4dd'>\	4r	.	4d\	o-	.	.	4dd\	o-	.	.	.	.	.
!	!	!	!	!	!	!	!	!	!	!	!	!LO:SIC:l:s=-san-:v	!	!	!	!	!	!
4r	.	.	4r	.	4dd'>\	4r	.	4d\	-san-	4r	.	4dd\	-ſa-	.	.	.	.	.
4F#\	6 3	.	4a/	.	4dd'>\	4F#\	O-	4d\	-na	4a\	o	4dd\	-na	.	.	.	.	.
!LO:LB:g=original	!	!	!	!	!	!LO:LB:g=original	!	!	!	!	!	!	!	!	!	!	!	!
=109	=109	=109	=109	=109	=109	=109	=109	=109	=109	=109	=109	=109	=109	=109	=109	=109	=109	=109
!	!	!	!	!	!	!	!	!	!	!	!	!	!	!	!LO:TX:a:Bi:t=allo:rj	!	!	!
!	!	!	!	!	!LO:TX:a:t=P:w źródle pozioma kreska nad taktem:problem	!	!	!	!	!LO:SIC:l:s=-san-:v	!	!	!	!	!	!	!	!
4G\	3	.	4b/	.	1dd 1d	(>4G\	-san-	4d\	in	(>4b\	sa-	4dd\	in	1ryy	4dd 4d/	4d 4D/	1ryy	1ryy
4F#\	3	.	4a/	.	.	4F#\)	.	4d\	ex-	4a\)	.	4dd\	ex-	.	8ddL 8d/	8dL 8D/	.	.
.	.	.	.	.	.	.	.	.	.	.	.	.	.	.	8ddJ 8d/	8dJ 8D/	.	.
!LO:TX:a:t=P:w źródle nuta ma caude po prawej stronie [\right]:problem	!	!	!	!	!	!	!	!	!	!	!	!	!	!	!	!	!	!
4G\	3	.	4b/	.	.	(>4G\	.	2d\	-cel-	(>4b\	.	2dd\	-cel-	.	4dd 4d/	4d 4D/	.	.
!LO:TX:a:t=P:w źródle nuta ma caude po prawej stronie [\right]:problem	!	!	!	!	!	!	!	!	!	!	!	!	!	!	!	!	!	!
4F#\	3	.	4a/	.	.	4F#\)	.	.	.	4a\)	.	.	.	.	4dd 4d/	4d 4D/	.	.
=110	=110	=110	=110	=110	=110	=110	=110	=110	=110	=110	=110	=110	=110	=110	=110	=110	=110	=110
4G\	5 3	.	4b/	.	4dd\	4G\	-na	4d\	-sis	4b\	-na	4dd\	-sis	1ryy	4dd 4d/	4d 4D/	1ryy	1ryy
*	*	*	*	*	*	*	*	*	*ij	*	*	*	*ij	*	*	*	*	*
4r	.	.	4r	.	4ee\	4r	.	4e\	o	4r	.	4ee\	o-	.	4r	4r	.	.
4r	.	.	4r	.	4ee\	4r	.	4e\	san-	4r	.	4ee\	-san-	.	2r	2r	.	.
*	*	*	*	*	*	*	*	*	*	*	*ij	*	*	*	*	*	*	*
4G#X\	6 3	.	4b/	.	4ee\	4G#X\	o-	4e\	-na	4b\	o-	4ee\	-na	.	.	.	.	.
=111	=111	=111	=111	=111	=111	=111	=111	=111	=111	=111	=111	=111	=111	=111	=111	=111	=111	=111
!	!	!	!	!	!	!	!	!	!	!	!	!	!	!	!LO:TX:a:Bi:t=2.	!LO:TX:a:Bi:t=2.	!	!
4A\	3	.	4cc#X\	.	1ee	(>4A\	-san-	4e\	in	(>4cc#\	-san-	4ee\	in	1ryy	0r	0r	1ryy	1ryy
!LO:SIC:s=4G#:v	!	!	!	!	!	!	!	!	!	!	!	!	!	!	!	!	!	!
4G\	3	.	4b\	.	.	4G#X\)	.	4e\	ex-	4b\)	.	4ee\	ex-	.	.	.	.	.
4A\	3	.	4cc#\	.	.	(>4A\	.	2e\	-cel-	(>4cc#\	.	2ee\	-cel-	.	.	.	.	.
!LO:SIC:s=4G#:v	!	!	!	!	!	!	!	!	!	!	!	!	!	!	!	!	!	!
4G\	3	.	4b\	.	.	4G#\)	.	.	.	4b\)	.	.	.	.	.	.	.	.
!	!	!	!	!	!	!	!	!LO:LB:g=original	!	!	!	!	!	!	!	!	!	!
=112	=112	=112	=112	=112	=112	=112	=112	=112	=112	=112	=112	=112	=112	=112	=112	=112	=112	=112
4A\	5 3	.	4cc#\	.	4ee\	4A\	-na	4e\	-sis	4cc#\	-na	4ee\	-sis	1ryy	.	.	1ryy	1ryy
*	*	*	*	*	*	*	*	*	*Xij	*	*Xij	*	*Xij	*	*	*	*	*
*	*	*	*	*	*	*	*	*	*	*	*ij	*	*	*	*	*	*	*
4r	.	.	4a/	.	4r	4r	.	4r	.	4a\	o-	4r	.	.	.	.	.	.
4r	.	.	4a/	.	4r	4r	.	4r	.	4a\	-san-	4r	.	.	.	.	.	.
4c#\	6 3	.	4a/	.	4ee\	4c#\	o-	4c#\	o-	4a\	-na	4ee\	o-	.	.	.	.	.
*	*	*	*	*	*	*	*	*	*	*	*Xij	*	*	*	*	*	*	*
=113	=113	=113	=113	=113	=113	=113	=113	=113	=113	=113	=113	=113	=113	=113	=113	=113	=113	=113
*	*	*	*	*	*	*	*	*	*	*	*	*	*	*	*	*^	*	*
!	!	!	!LO:TX:a:t=P:w źródle półnuta 2a i niewidoczna pauza lub detache nad nutą 1a:problem	!	!	!	!	!	!	!	!	!	!	!	!	!	!	!	!
4d\	3	.	1a	.	4ff#\	4d\	-san-	(>4d\	-san-	2a\	in	(>4ff#\	-ſa(n)-	1ryy	4dd 4d/	4f#/	4d\	1ryy	1ryy
4c#\	3	.	.	.	4ee\	4c#\	.	4c#\)	.	.	.	4ee\)	.	.	4a 4A/	4e/	4A\	.	.
4d\	3	.	.	.	4ff#\	4d\	-na	(>4d\	-na	2a\	ex-	(>4ff#\	-na	.	4dd 4d/	4f#/	4d\	.	.
!	!	!	!	!	!	!	!	!LO:TX:a:t=P:w źródle oznaczenie dopisanego fragmetu za pomocą przekreślonego kółka oraz 'vi -de':problem	!	!	!	!	!	!	!	!	!	!	!
!	!	!	!	!	!	!	!	!LO:TX:a:t=vi&colon;	!	!	!	!	!	!	!	!	!	!	!
4c#\	3	.	.	.	4ee\	4c#\	.	4c#\)	.	.	.	4ee\)	.	.	4a 4A/	4e/	4A\	.	.
=114	=114	=114	=114	=114	=114	=114	=114	=114	=114	=114	=114	=114	=114	=114	=114	=114	=114	=114	=114
!	!	!	!	!	!	!	!	!LO:TX:a:t=de&colon;	!	!	!	!	!	!	!	!	!	!	!
4d\	3	.	1a	.	4ff#\	(>4d\	in	(>4d\	in	1a	-cel-	(>4ff#\	in	1ryy	4dd 4d/	4f#/	4d\	1ryy	1ryy
4c#\	3	.	.	.	4ee\	4c#\)	.	4c#\)	.	.	.	4ee\)	.	.	4a 4A/	4e/	4A\	.	.
4d\	3	.	.	.	4ff#\	4d\	ex-	(>4d\	ex-	.	.	(>4ff#\	ex-	.	4dd 4d/	4f#/	4d\	.	.
4c#\	3	.	.	.	4ee\	4c#\	.	4c#\)	.	.	.	4ee\)	.	.	4a 4A/	4e/	4A\	.	.
!	!	!	!LO:LB:g=original	!	!	!	!	!	!	!	!	!	!	!	!	!	!LO:LB:g=original	!	!
=115	=115	=115	=115	=115	=115	=115	=115	=115	=115	=115	=115	=115	=115	=115	=115	=115	=115	=115	=115
!	!	!	!	!	!	!	!	!	!	!	!	!	!	!	!	!	!LO:TX:a:t=P:W źródle nuta 4F# ma caude po lewej stronie:problem	!	!
4d\	.	.	4a/	.	4ff#\	(>4d\	-cel-	(>4d\	-cel-	4a\	.	4ff#\	-cel-	1ryy	4dd 4d/	4d/	4F#\	1ryy	1ryy
4B\	n x	.	4g/	.	2dd\	4B\)	.	4B\)	.	4f#\	.	2dd\	.	.	4r	4r	4ryy	.	.
4Gn\	6 5	.	2e/	.	.	(>4Gn\	.	2A\	.	2e\	.	.	.	.	2r	2r	2ryy	.	.
4A\	.	.	.	.	4cc#\	4A\)	.	.	.	.	.	4cc#\	.	.	.	.	.	.	.
*	*	*	*	*	*	*	*	*	*	*	*	*	*	*	*	*v	*v	*	*
=116	=116	=116	=116	=116	=116	=116	=116	=116	=116	=116	=116	=116	=116	=116	=116	=116	=116	=116
!	!	!	!	!	!	!	!	!	!	!	!	!	!	!	!LO:TX:a:Bi:t=1.	!LO:TX:a:Bi:t=1.	!	!
4D\	.	.	4f#/	.	4dd\	4D`>\	-sis	4A\	-sis	4f#\	-sis	4dd\	-sis	1ryy	1r	1r	1ryy	1ryy
4r	.	.	4a/	.	4r	4r	.	4r	.	4a\	o-	4rb	.	.	.	.	.	.
!	!	!	!	!	!	!	!	!	!	!LO:SIC:l:s=-san-:v	!	!	!	!	!	!	!	!
4r	.	.	4a/	.	4r	4r	.	4r	.	4a\	-sa-	4r	.	.	.	.	.	.
!	!	!	!	!	!	!LO:LB:g=original	!	!	!	!	!	!	!	!	!	!	!	!
4A\	.	.	4a/	.	4ee\	4c#\	O-	4c#`>\	o-	4a\	-na	4ee\	o-	.	.	.	.	.
!	!	!	!	!	!LO:LB:g=original	!	!	!	!	!	!	!LO:LB:g=original	!	!	!	!	!	!
=117	=117	=117	=117	=117	=117	=117	=117	=117	=117	=117	=117	=117	=117	=117	=117	=117	=117	=117
*	*	*	*	*	*	*	*	*	*	*	*	*	*	*	*	*^	*	*
!LO:TX:a:t=P:w źródle nuta ma caude po prawej stronie [\right]:problem	!	!	!	!	!	!	!	!	!	!	!	!	!	!	!	!	!	!	!
4d\	3	.	1a	.	4ff#\	(>4d\	-san-	(>4d\	-san-	2a\	in	(>4ff#\	-sa(n)-	1ryy	4dd 4d/	4f#/	4d\	1ryy	1ryy
4c#\	3	.	.	.	4ee\	4c#\)	.	4c#\)	.	.	.	4ee\)	.	.	4a 4A/	4e/	4A\	.	.
!LO:TX:a:t=P:w źródle nuta ma caude po prawej stronie [\right]:problem	!	!	!	!	!	!	!	!	!	!	!	!	!	!	!	!	!	!	!
4d\	3	.	.	.	4ff#\	(>4d\	-na	(>4d\	-na	2a\	ex-	(>4ff#\	-na	.	4dd 4d/	4f#/	4d\	.	.
4c#\	3	.	.	.	4ee\	4c#\)	.	4c#\)	.	.	.	4ee\)	.	.	4a 4A/	4e/	4A\	.	.
=118	=118	=118	=118	=118	=118	=118	=118	=118	=118	=118	=118	=118	=118	=118	=118	=118	=118	=118	=118
4d\	3	.	1a	.	4ff#\	(>4d\	in	(>4d\	in	1a	-cel-	(>4ff#\	in	1ryy	4dd 4d/	4f#/	4d\	1ryy	1ryy
4c#\	3	.	.	.	4ee\	4c#\)	.	4c#\)	.	.	.	4ee\)	.	.	4a 4A/	4e/	4A\	.	.
!LO:TX:a:t=P:w źródle nuta ma caude po prawej stronie [\right]:problem	!	!	!	!	!	!	!	!	!	!	!	!	!	!	!	!	!	!	!
4d\	3	.	.	.	4ff#\	(>4d\	ex-	(>4d\	ex-	.	.	(>4ff#\	ex-	.	4dd 4d/	4f#/	4d\	.	.
4c#\	3	.	.	.	4ee\	4c#\)	.	4c#\)	.	.	.	4ee\)	.	.	4a 4A/	4e/	4A\	.	.
!	!	!	!	!	!	!	!	!LO:TX:a:t=P:w źródle to łamanie systemu dotyczny fragmentu dopisanego:problem	!	!	!	!	!	!	!	!	!	!	!
!	!	!	!	!	!	!	!	!LO:LB:g=original	!	!	!	!	!	!	!	!LO:LB:g=original	!	!	!
=119	=119	=119	=119	=119	=119	=119	=119	=119	=119	=119	=119	=119	=119	=119	=119	=119	=119	=119	=119
4d\	3 x	.	4a/	.	4ff#\	(>4d\	-cel-	4d\	-cel-	4a\	.	4ff#\	-cel-	1ryy	4dd 4d/	4d/	4F#\	1ryy	1ryy
4B\	n x	.	4f#/	.	2dd\	4B\	.	2B\	.	4f#\	.	2dd\	.	.	4r	4r	4ryy	.	.
4G\	6 5	.	2e/	.	.	4G\	.	.	.	2e\	.	.	.	.	2r	2r	2ryy	.	.
4A\	.	.	.	.	4cc#\	4A\)	.	4A\	-sis	.	.	4cc#\	.	.	.	.	.	.	.
!LO:LB:g=original	!	!	!	!	!	!	!	!	!	!LO:LB:g=original	!	!	!	!	!	!	!	!	!
*	*	*	*	*	*	*	*	*	*	*	*	*	*	*	*	*v	*v	*	*
=120	=120	=120	=120	=120	=120	=120	=120	=120	=120	=120	=120	=120	=120	=120	=120	=120	=120	=120
*^	*	*	*	*	*	*	*	*	*	*	*	*	*	*	*	*	*	*
!LO:N:vis=2.	!LO:N:vis=2.	!	!	!	!	!	!	!	!LO:N:vis=2	!	!	!	!	!	!	!	!	!	!
1D/	1DD/	.	.	1a 1f#	.	(>8dd\L	[<1D	-sis	[<1A	in	1f#	-sis	1dd	.	1ryy	2dd 2d/	2d 2D/	1ryy	1ryy
.	.	.	.	.	.	8ee\	.	.	.	.	.	.	.	.	.	.	.	.	.
.	.	.	.	.	.	8ff#\	.	.	.	.	.	.	.	.	.	.	.	.	.
.	.	.	.	.	.	8dd\J)	.	.	.	.	.	.	.	.	.	.	.	.	.
.	.	.	.	.	.	2a/|	.	.	.	.	.	.	.	.	.	2r	2r	.	.
=121	=121	=121	=121	=121	=121	=121	=121	=121	=121	=121	=121	=121	=121	=121	=121	=121	=121	=121	=121
*	*	*	*	*	*	*	*	*	*	*	*	*ij	*	*	*	*	*	*	*
!LO:N:vis=2.	!LO:N:vis=2.	!	!	!	!	!	!	!	!	!	!	!	!	!	!	!	!	!	!
1D/	1DD/	.	.	1a 1f#	.	(>8dd\L	1D_<	ex-	1A]	ex-	1f#	o-	1dd	.	1ryy	2dd 2d/	2d 2D/	1ryy	1ryy
.	.	.	.	.	.	8ee\	.	.	.	.	.	.	.	.	.	.	.	.	.
.	.	.	.	.	.	8ff#\	.	.	.	.	.	.	.	.	.	.	.	.	.
.	.	.	.	.	.	8dd\J)	.	.	.	.	.	.	.	.	.	.	.	.	.
.	.	.	.	.	.	2aa^^\	.	.	.	.	.	.	.	.	.	2r	2r	.	.
=122	=122	=122	=122	=122	=122	=122	=122	=122	=122	=122	=122	=122	=122	=122	=122	=122	=122	=122	=122
!LO:N:vis=2.	!LO:N:vis=2.	!	!	!	!	!	!	!	!	!	!	!	!	!	!	!	!	!	!
1D/	1DD/	.	.	1a 1f#	.	8dd\L	1D_<	-cel-	[<1A	-cel-	1f#	-san-	1dd	.	1ryy	2dd 2d/	2d 2D/	1ryy	1ryy
.	.	.	.	.	.	8ee\	.	.	.	.	.	.	.	.	.	.	.	.	.
.	.	.	.	.	.	8ff#\	.	.	.	.	.	.	.	.	.	.	.	.	.
.	.	.	.	.	.	8dd\J	.	.	.	.	.	.	.	.	.	.	.	.	.
.	.	.	.	.	.	2a/|	.	.	.	.	.	.	.	.	.	2r	2r	.	.
=123	=123	=123	=123	=123	=123	=123	=123	=123	=123	=123	=123	=123	=123	=123	=123	=123	=123	=123	=123
!	!	!	!	!	!	!	!	!	!	!	!LO:TX:a:t=P:w źródle następny takt skreślony przez skryptora:problem	!	!	!	!	!	!	!	!
!LO:N:vis=2	!LO:N:vis=2	!	!	!	!	!	!	!	!LO:SIC:l:s=-sis:v	!	!	!	!	!	!	!	!	!	!
1D/	1DD/	.	.	1a 1f#	.	(>8dd\L	1D]	.	1A_<	-si	1f#	-na	1dd	.	1ryy	2dd 2d/	2d 2D/	1ryy	1ryy
.	.	.	.	.	.	8ee\	.	.	.	.	.	.	.	.	.	.	.	.	.
.	.	.	.	.	.	8ff#\	.	.	.	.	.	.	.	.	.	.	.	.	.
.	.	.	.	.	.	8dd\J)	.	.	.	.	.	.	.	.	.	.	.	.	.
.	.	.	.	.	.	2aa\|	.	.	.	.	.	.	.	.	.	2r	2r	.	.
*v	*v	*	*	*	*	*	*	*	*	*	*	*	*	*	*	*	*	*	*
=124	=124	=124	=124	=124	=124	=124	=124	=124	=124	=124	=124	=124	=124	=124	=124	=124	=124	=124
*	*	*	*^	*	*	*	*	*	*	*	*	*	*	*	*	*	*	*
*	*	*	*tremolo	*tremolo	*	*	*	*	*	*	*	*	*	*	*	*	*	*	*
2D\	.	.	8a/L	8f#\L	.	2ff#\	2D\	.	1A]	ex-	2f#\	in	2dd\	-sis	1ryy	1dd 1d	1f# 1d	1ryy	1ryy
.	.	.	8a/	8f#\	.	.	.	.	.	.	.	.	.	.	.	.	.	.	.
.	.	.	8a/	8f#\	.	.	.	.	.	.	.	.	.	.	.	.	.	.	.
.	.	.	8a/J	8f#\J	.	.	.	.	.	.	.	.	.	.	.	.	.	.	.
*	*	*	*	*Xtremolo	*	*	*	*	*	*	*	*	*	*	*	*	*	*	*
2d\	.	.	8ff#\L	2ryy	.	8ddd\L	2d\	.	.	.	2a\	ex-	2ff#\	o-	.	.	.	.	.
.	.	.	8ff#\	.	.	8ddd\	.	.	.	.	.	.	.	.	.	.	.	.	.
.	.	.	8ff#\	.	.	8ddd\	.	.	.	.	.	.	.	.	.	.	.	.	.
.	.	.	8ff#\J	.	.	8ddd\J	.	.	.	.	.	.	.	.	.	.	.	.	.
*	*	*	*Xtremolo	*	*	*	*	*	*	*	*	*	*	*	*	*	*	*	*
*	*	*	*v	*v	*	*	*	*	*	*	*	*	*	*	*	*	*	*	*
=125	=125	=125	=125	=125	=125	=125	=125	=125	=125	=125	=125	=125	=125	=125	=125	=125	=125	=125
*	*	*	*	*	*	*	*	*	*	*	*	*	*	*	*	*^	*	*
*	*	*	*tremolo	*	*	*	*	*	*	*	*	*	*	*	*	*	*	*	*
!	!	!	!	!	!	!	!	!LO:N:vis=2	!	!	!	!	!	!	!	!	!	!	!
2A\	4	.	8ee\L	.	2ddd\	(>2A\	.	1A	-cel-	1a	-cel-	1ee	-san-	1ryy	4a 4A/	4e/	4A\	1ryy	1ryy
.	.	.	8ee\	.	.	.	.	.	.	.	.	.	.	.	.	.	.	.	.
.	.	.	8ee\	.	.	.	.	.	.	.	.	.	.	.	8aL 8A/	8e/L	8A\L	.	.
.	.	.	8ee\J	.	.	.	.	.	.	.	.	.	.	.	8aJ 8A/	8e/J	8A\J	.	.
2AA/	3	.	8ee\L	.	2ccc#\	2AA/)	.	.	.	.	.	.	.	.	4a 4A/	4e/	4A\	.	.
.	.	.	8ee\	.	.	.	.	.	.	.	.	.	.	.	.	.	.	.	.
.	.	.	8ee\	.	.	.	.	.	.	.	.	.	.	.	4a 4A/	4e/	4A\	.	.
.	.	.	8ee\J	.	.	.	.	.	.	.	.	.	.	.	.	.	.	.	.
*	*	*	*Xtremolo	*	*	*	*	*	*	*	*	*	*	*	*	*	*	*	*
=126	=126	=126	=126	=126	=126	=126	=126	=126	=126	=126	=126	=126	=126	=126	=126	=126	=126	=126	=126
*	*	*	*	*	*	*	*	*	*	*	*	*	*	*	*^	*	*	*	*
2D\	3	.	2ff#\	.	2ddd\	2D\	-sis.	2A\	-sis	2a\	-sis	2ff#\	-na	1ryy	2f#/	2d\	2d/	2F#\	1ryy	1ryy
!	!	!	!	!	!	!	!	!	!	!	!	!	!	!	!LO:TX:a:t=P:w źródle obydwie pauzy 2r słabo widoczne:problem	!	!	!	!	!
2r	.	.	2r	.	2ryy	2r	.	2r	.	2r	.	2r	.	.	2rb	2rg	2r	2ryy	.	.
*	*	*	*	*	*	*	*	*	*	*	*Xij	*	*	*	*	*	*	*	*	*
!LO:TX:a:t=P:ozdobna kreska końcowa &colon;||:problem	!	!	!LO:TX:a:t=P:ozdobna kreska końcowa &colon;||:problem	!	!LO:TX:a:t=P:ozdobna kreska końcowa &colon;||:problem	!	!	!	!	!	!	!	!	!	!	!	!	!	!	!
*	*	*	*	*	*	*	*	*	*	*	*	*	*	*	*v	*v	*	*	*	*
*	*	*	*	*	*	*	*	*	*	*	*	*	*	*	*	*v	*v	*	*
==	==	==	==	==	==	==	==	==	==	==	==	==	==	==	==	==	==	==
*-	*-	*-	*-	*-	*-	*-	*-	*-	*-	*-	*-	*-	*-	*-	*-	*-	*-	*-
!!title: @{OTL};
!!!RDF**kern: > = above
!!!RDF**kern: < = below
!!!EED: Wojciech Jakubiak-Danek
!!!EST: 2020-12-17
!!!URL-scan: http://repozytorium.nifc.pl/skany/pl-cz-nut--iii-33
!!!ONB-nifc: UWAGA: części Mszy: Kyrie, Christe, Gloria, Credo, Sanctus, Benedictus, Agnus Dei
!!!ENC: Andrzej Kubiczek
!!!END: 2020-06-22
!!!RDF**kern: | = vertical stroke
